(G-CODE GENERATED BY FLATCAM v8.994 - www.flatcam.org - Version Date: 2020/11/7)

(Name: drill.DRL_cnc)
(Type: G-code from Geometry)
(Units: MM)

(Created on Sunday, 13 April 2025 at 21:06)

(This preprocessor is the default preprocessor used by FlatCAM.)
(It is made to work with MACH3 compatible motion controllers.)


(TOOLS DIAMETER: )
(Tool: 1 -> Dia: 1.0)
(Tool: 2 -> Dia: 1.5)
(Tool: 3 -> Dia: 3.0)

(FEEDRATE Z: )
(Tool: 1 -> Feedrate: 120.0)
(Tool: 2 -> Feedrate: 300)
(Tool: 3 -> Feedrate: 300)

(FEEDRATE RAPIDS: )
(Tool: 1 -> Feedrate Rapids: 1500)
(Tool: 2 -> Feedrate Rapids: 1500)
(Tool: 3 -> Feedrate Rapids: 1500)

(Z_CUT: )
(Tool: 1 -> Z_Cut: -2.0)
(Tool: 2 -> Z_Cut: -1.7)
(Tool: 3 -> Z_Cut: -1.7)

(Tools Offset: )
(Tool: 1 -> Offset Z: 0.0)

(Z_MOVE: )
(Tool: 1 -> Z_Move: 2)
(Tool: 2 -> Z_Move: 2)
(Tool: 3 -> Z_Move: 2)

(Z Toolchange: 15 mm)
(X,Y Toolchange: 0.0000, 0.0000 mm)
(Z Start: None mm)
(Z End: 0.5 mm)
(X,Y End: None mm)
(Steps per circle: 64)
(Preprocessor Excellon: default)

(X range:    6.0900 ...   63.8800  mm)
(Y range:    9.3000 ...   46.8800  mm)

(Spindle Speed: 1000 RPM)
G21
G90
G94

G01 F120.00

M5
G00 Z15.0000
T1
G00 X0.0000 Y0.0000                

(MSG, Change to Tool Dia = 1.0000 ||| Total drills for tool T1 = 52)
M0
G00 Z15.0000

G01 F120.00
M03 S1000
G00 X57.3000 Y20.5800
G01 Z-2.0000
G01 Z0
G00 Z2.0000
G00 X54.7600 Y20.5800
G01 Z-2.0000
G01 Z0
G00 Z2.0000
G00 X52.2200 Y20.5800
G01 Z-2.0000
G01 Z0
G00 Z2.0000
G00 X49.6800 Y20.5800
G01 Z-2.0000
G01 Z0
G00 Z2.0000
G00 X48.4100 Y23.1200
G01 Z-2.0000
G01 Z0
G00 Z2.0000
G00 X33.2600 Y21.2700
G01 Z-2.0000
G01 Z0
G00 Z2.0000
G00 X30.7200 Y21.2700
G01 Z-2.0000
G01 Z0
G00 Z2.0000
G00 X28.1800 Y21.2700
G01 Z-2.0000
G01 Z0
G00 Z2.0000
G00 X25.6400 Y21.2700
G01 Z-2.0000
G01 Z0
G00 Z2.0000
G00 X33.2600 Y11.1100
G01 Z-2.0000
G01 Z0
G00 Z2.0000
G00 X30.7200 Y11.1100
G01 Z-2.0000
G01 Z0
G00 Z2.0000
G00 X28.1800 Y11.1100
G01 Z-2.0000
G01 Z0
G00 Z2.0000
G00 X25.6400 Y11.1100
G01 Z-2.0000
G01 Z0
G00 Z2.0000
G00 X20.4300 Y9.8000
G01 Z-2.0000
G01 Z0
G00 Z2.0000
G00 X15.1500 Y12.3800
G01 Z-2.0000
G01 Z0
G00 Z2.0000
G00 X9.1300 Y12.3800
G01 Z-2.0000
G01 Z0
G00 Z2.0000
G00 X9.1300 Y9.8400
G01 Z-2.0000
G01 Z0
G00 Z2.0000
G00 X15.1500 Y9.8400
G01 Z-2.0000
G01 Z0
G00 Z2.0000
G00 X20.4300 Y12.3400
G01 Z-2.0000
G01 Z0
G00 Z2.0000
G00 X21.8300 Y20.0000
G01 Z-2.0000
G01 Z0
G00 Z2.0000
G00 X19.2900 Y25.0800
G01 Z-2.0000
G01 Z0
G00 Z2.0000
G00 X21.8300 Y28.8900
G01 Z-2.0000
G01 Z0
G00 Z2.0000
G00 X19.2900 Y31.4300
G01 Z-2.0000
G01 Z0
G00 Z2.0000
G00 X15.4200 Y32.1300
G01 Z-2.0000
G01 Z0
G00 Z2.0000
G00 X10.9800 Y27.5800
G01 Z-2.0000
G01 Z0
G00 Z2.0000
G00 X6.5900 Y33.9700
G01 Z-2.0000
G01 Z0
G00 Z2.0000
G00 X6.5900 Y36.5100
G01 Z-2.0000
G01 Z0
G00 Z2.0000
G00 X6.5900 Y39.0500
G01 Z-2.0000
G01 Z0
G00 Z2.0000
G00 X6.5900 Y41.5900
G01 Z-2.0000
G01 Z0
G00 Z2.0000
G00 X23.5000 Y36.7700
G01 Z-2.0000
G01 Z0
G00 Z2.0000
G00 X26.0400 Y36.7700
G01 Z-2.0000
G01 Z0
G00 Z2.0000
G00 X24.7700 Y34.2300
G01 Z-2.0000
G01 Z0
G00 Z2.0000
G00 X27.3100 Y34.2300
G01 Z-2.0000
G01 Z0
G00 Z2.0000
G00 X28.5800 Y36.7700
G01 Z-2.0000
G01 Z0
G00 Z2.0000
G00 X29.8500 Y34.2300
G01 Z-2.0000
G01 Z0
G00 Z2.0000
G00 X32.3900 Y34.2300
G01 Z-2.0000
G01 Z0
G00 Z2.0000
G00 X31.1200 Y36.7700
G01 Z-2.0000
G01 Z0
G00 Z2.0000
G00 X45.8700 Y44.7100
G01 Z-2.0000
G01 Z0
G00 Z2.0000
G00 X48.4100 Y44.7100
G01 Z-2.0000
G01 Z0
G00 Z2.0000
G00 X50.9500 Y44.7100
G01 Z-2.0000
G01 Z0
G00 Z2.0000
G00 X53.4900 Y44.7100
G01 Z-2.0000
G01 Z0
G00 Z2.0000
G00 X56.0300 Y44.7100
G01 Z-2.0000
G01 Z0
G00 Z2.0000
G00 X58.5700 Y44.7100
G01 Z-2.0000
G01 Z0
G00 Z2.0000
G00 X56.0300 Y40.9000
G01 Z-2.0000
G01 Z0
G00 Z2.0000
G00 X50.9500 Y40.9000
G01 Z-2.0000
G01 Z0
G00 Z2.0000
G00 X53.4900 Y34.5500
G01 Z-2.0000
G01 Z0
G00 Z2.0000
G00 X56.0300 Y34.5500
G01 Z-2.0000
G01 Z0
G00 Z2.0000
G00 X56.0300 Y28.2000
G01 Z-2.0000
G01 Z0
G00 Z2.0000
G00 X53.4900 Y28.2000
G01 Z-2.0000
G01 Z0
G00 Z2.0000
G00 X50.9500 Y23.1200
G01 Z-2.0000
G01 Z0
G00 Z2.0000
G00 X53.4900 Y23.1200
G01 Z-2.0000
G01 Z0
G00 Z2.0000
G00 X56.0300 Y23.1200
G01 Z-2.0000
G01 Z0
G00 Z2.0000
M05
G00 Z0.50


