(G-CODE GENERATED BY FLATCAM v8.994 - www.flatcam.org - Version Date: 2020/11/7)

(Name: WaterTankMonitr_PCB_Plan_copper_bottom.gbr_ncc_cnc)
(Type: G-code from Geometry)
(Units: MM)

(Created on Sunday, 13 April 2025 at 21:02)

(This preprocessor is the default preprocessor used by FlatCAM.)
(It is made to work with MACH3 compatible motion controllers.)

(TOOL DIAMETER: 0.1 mm)
(Feedrate_XY: 120.0 mm/min)
(Feedrate_Z: 60.0 mm/min)
(Feedrate rapids 1500.0 mm/min)

(Z_Cut: 0.0 mm)
(Z_Move: 2.0 mm)
(Z Start: None mm)
(Z End: 15.0 mm)
(X,Y End: None mm)
(Steps per circle: 64)
(Preprocessor Geometry: default)

(X range:    2.8147 ...   65.7299  mm)
(Y range:    8.4515 ...   48.6431  mm)

(Spindle Speed: 1000.0 RPM)
G21
G90
G94

G01 F120.00

M5
G00 Z15.0000
G00 X0.0000 Y0.0000
T2
   
(MSG, Change to Tool Dia = 0.1000)
M0
G00 Z15.0000

M03 S1000.0
G01 F120.00
G00 X8.6463 Y11.1652
G01 F60.00
G01 Z0.0000
G01 F120.00
G01 X8.6629 Y11.1604
G01 X8.6799 Y11.1569
G01 X8.6974 Y11.1546
G01 X8.7147 Y11.1537
G01 X9.5481 Y11.1537
G01 X9.5661 Y11.1544
G01 X9.5840 Y11.1565
G01 X9.6022 Y11.1602
G01 X9.6199 Y11.1652
G01 X9.6174 Y11.1523
G01 X9.6156 Y11.1400
G01 X9.6145 Y11.1272
G01 X9.6141 Y11.1144
G01 X9.6144 Y11.1013
G01 X9.6156 Y11.0877
G01 X9.6174 Y11.0751
G01 X9.6199 Y11.0622
G01 X9.6033 Y11.0670
G01 X9.5863 Y11.0705
G01 X9.5688 Y11.0728
G01 X9.5515 Y11.0737
G01 X8.7181 Y11.0737
G01 X8.7001 Y11.0730
G01 X8.6822 Y11.0709
G01 X8.6640 Y11.0672
G01 X8.6463 Y11.0622
G01 X8.6488 Y11.0751
G01 X8.6506 Y11.0874
G01 X8.6517 Y11.1002
G01 X8.6521 Y11.1130
G01 X8.6518 Y11.1261
G01 X8.6506 Y11.1397
G01 X8.6488 Y11.1523
G01 X8.6463 Y11.1652
G01 X8.0891 Y11.6871
G01 X8.1743 Y11.6871
G01 X8.6014 Y11.2601
G01 X8.6082 Y11.2540
G01 X8.6157 Y11.2480
G01 X8.6230 Y11.2428
G01 X8.6313 Y11.2375
G01 X8.6393 Y11.2331
G01 X8.6479 Y11.2289
G01 X8.6562 Y11.2254
G01 X8.6655 Y11.2221
G01 X8.6782 Y11.2184
G01 X8.6905 Y11.2160
G01 X8.7029 Y11.2144
G01 X8.7166 Y11.2137
G01 X9.5481 Y11.2137
G01 X9.5633 Y11.2144
G01 X9.5786 Y11.2165
G01 X9.5941 Y11.2201
G01 X9.6079 Y11.2246
G01 X9.6214 Y11.2303
G01 X9.6349 Y11.2375
G01 X9.6482 Y11.2463
G01 X9.6597 Y11.2555
G01 X9.6683 Y11.2635
G01 X10.0919 Y11.6871
G01 X10.1771 Y11.6871
G01 X9.7239 Y11.2339
G01 X9.7163 Y11.2258
G01 X9.7067 Y11.2138
G01 X9.6979 Y11.2005
G01 X9.6907 Y11.1870
G01 X9.6850 Y11.1735
G01 X9.6801 Y11.1583
G01 X9.6767 Y11.1435
G01 X9.6748 Y11.1289
G01 X9.6741 Y11.1130
G01 X9.6749 Y11.0978
G01 X9.6772 Y11.0813
G01 X9.6810 Y11.0658
G01 X9.6865 Y11.0500
G01 X9.6929 Y11.0360
G01 X9.7009 Y11.0221
G01 X9.7105 Y11.0085
G01 X9.7205 Y10.9970
G01 X10.0989 Y10.6187
G01 X10.1079 Y10.6110
G01 X10.1170 Y10.6043
G01 X10.1275 Y10.5976
G01 X10.1379 Y10.5920
G01 X10.1493 Y10.5868
G01 X10.1596 Y10.5830
G01 X10.1709 Y10.5796
G01 X10.1831 Y10.5769
G01 X10.1985 Y10.5748
G01 X10.2136 Y10.5742
G01 X14.0726 Y10.5742
G01 X14.0877 Y10.5748
G01 X14.1031 Y10.5769
G01 X14.1186 Y10.5805
G01 X14.1330 Y10.5853
G01 X14.1483 Y10.5920
G01 X14.1629 Y10.6001
G01 X14.1777 Y10.6106
G01 X14.1903 Y10.6215
G01 X14.5624 Y10.9935
G01 X14.5699 Y11.0016
G01 X14.5803 Y11.0147
G01 X14.5897 Y11.0293
G01 X14.5973 Y11.0442
G01 X14.6038 Y11.0611
G01 X14.6083 Y11.0779
G01 X14.6110 Y11.0944
G01 X14.6121 Y11.1111
G01 X14.6115 Y11.1289
G01 X14.6098 Y11.1421
G01 X14.6069 Y11.1558
G01 X14.6027 Y11.1696
G01 X14.5979 Y11.1820
G01 X14.5917 Y11.1945
G01 X14.5843 Y11.2070
G01 X14.5766 Y11.2178
G01 X14.5671 Y11.2290
G01 X13.9231 Y11.8732
G01 X13.9231 Y12.8944
G01 X14.4164 Y13.3877
G01 X14.4164 Y13.3025
G01 X14.0290 Y12.9149
G01 X14.0222 Y12.9072
G01 X14.0161 Y12.8995
G01 X14.0103 Y12.8910
G01 X14.0056 Y12.8832
G01 X14.0009 Y12.8746
G01 X13.9966 Y12.8652
G01 X13.9933 Y12.8568
G01 X13.9902 Y12.8474
G01 X13.9871 Y12.8353
G01 X13.9851 Y12.8245
G01 X13.9836 Y12.8120
G01 X13.9831 Y12.7999
G01 X13.9831 Y11.9688
G01 X13.9841 Y11.9507
G01 X13.9862 Y11.9364
G01 X13.9895 Y11.9228
G01 X13.9935 Y11.9101
G01 X13.9988 Y11.8975
G01 X14.0048 Y11.8857
G01 X14.0122 Y11.8737
G01 X14.0200 Y11.8631
G01 X14.0290 Y11.8527
G01 X14.6187 Y11.2628
G01 X14.6265 Y11.2556
G01 X14.6357 Y11.2481
G01 X14.6449 Y11.2416
G01 X14.6550 Y11.2355
G01 X14.6648 Y11.2304
G01 X14.6744 Y11.2262
G01 X14.6841 Y11.2226
G01 X14.6942 Y11.2196
G01 X14.7042 Y11.2172
G01 X14.7146 Y11.2154
G01 X14.7249 Y11.2143
G01 X14.7354 Y11.2138
G01 X15.5692 Y11.2138
G01 X15.5799 Y11.2142
G01 X15.5916 Y11.2154
G01 X15.6020 Y11.2172
G01 X15.6127 Y11.2198
G01 X15.6221 Y11.2226
G01 X15.6318 Y11.2262
G01 X15.6414 Y11.2304
G01 X15.6506 Y11.2352
G01 X15.6597 Y11.2406
G01 X15.6682 Y11.2464
G01 X15.6765 Y11.2529
G01 X15.6842 Y11.2597
G01 X16.0718 Y11.6471
G01 X16.1570 Y11.6471
G01 X15.7438 Y11.2340
G01 X15.7348 Y11.2242
G01 X15.7255 Y11.2122
G01 X15.7169 Y11.1988
G01 X15.7101 Y11.1858
G01 X15.7042 Y11.1717
G01 X15.6995 Y11.1565
G01 X15.6963 Y11.1414
G01 X15.6945 Y11.1255
G01 X15.6941 Y11.1103
G01 X15.6952 Y11.0944
G01 X15.6975 Y11.0799
G01 X15.7012 Y11.0651
G01 X15.7064 Y11.0501
G01 X15.7125 Y11.0367
G01 X15.7200 Y11.0234
G01 X15.7291 Y11.0103
G01 X15.7391 Y10.9985
G01 X16.1170 Y10.6205
G01 X16.1237 Y10.6145
G01 X16.1312 Y10.6085
G01 X16.1386 Y10.6032
G01 X16.1469 Y10.5980
G01 X16.1548 Y10.5935
G01 X16.1634 Y10.5893
G01 X16.1718 Y10.5858
G01 X16.1810 Y10.5825
G01 X16.1938 Y10.5789
G01 X16.2073 Y10.5762
G01 X16.2204 Y10.5747
G01 X16.2336 Y10.5742
G01 X19.3921 Y10.5742
G01 X19.4080 Y10.5749
G01 X19.4245 Y10.5773
G01 X19.4360 Y10.5799
G01 X19.4468 Y10.5832
G01 X19.4578 Y10.5874
G01 X19.4678 Y10.5920
G01 X19.4782 Y10.5976
G01 X19.4877 Y10.6036
G01 X19.4972 Y10.6106
G01 X19.5057 Y10.6177
G01 X19.8449 Y10.9568
G01 X19.8564 Y10.9709
G01 X19.8660 Y10.9854
G01 X19.8743 Y11.0013
G01 X19.8806 Y11.0175
G01 X19.8855 Y11.0350
G01 X19.8883 Y11.0522
G01 X19.8892 Y11.0617
G01 X19.8894 Y11.0708
G01 X19.8886 Y11.0889
G01 X19.8865 Y11.1033
G01 X19.8835 Y11.1162
G01 X19.8793 Y11.1295
G01 X19.8743 Y11.1418
G01 X19.8681 Y11.1541
G01 X19.8612 Y11.1654
G01 X19.8530 Y11.1767
G01 X19.8444 Y11.1868
G01 X19.2004 Y11.8310
G01 X19.2004 Y12.8522
G01 X19.6937 Y13.3455
G01 X19.6937 Y13.2603
G01 X19.3063 Y12.8727
G01 X19.2995 Y12.8650
G01 X19.2930 Y12.8567
G01 X19.2872 Y12.8482
G01 X19.2818 Y12.8391
G01 X19.2770 Y12.8299
G01 X19.2728 Y12.8203
G01 X19.2692 Y12.8106
G01 X19.2662 Y12.8005
G01 X19.2635 Y12.7890
G01 X19.2619 Y12.7789
G01 X19.2608 Y12.7684
G01 X19.2604 Y12.7577
G01 X19.2604 Y11.9232
G01 X19.2611 Y11.9114
G01 X19.2625 Y11.9002
G01 X19.2647 Y11.8886
G01 X19.2675 Y11.8780
G01 X19.2713 Y11.8668
G01 X19.2756 Y11.8564
G01 X19.2808 Y11.8458
G01 X19.2864 Y11.8363
G01 X19.2918 Y11.8281
G01 X19.2973 Y11.8209
G01 X19.3035 Y11.8135
G01 X19.3099 Y11.8067
G01 X19.8993 Y11.2175
G01 X19.9097 Y11.2085
G01 X19.9203 Y11.2007
G01 X19.9323 Y11.1933
G01 X19.9452 Y11.1868
G01 X19.9574 Y11.1818
G01 X19.9708 Y11.1776
G01 X19.9837 Y11.1746
G01 X19.9973 Y11.1726
G01 X20.0154 Y11.1716
G01 X20.8465 Y11.1716
G01 X20.8586 Y11.1721
G01 X20.8711 Y11.1736
G01 X20.8834 Y11.1759
G01 X20.8940 Y11.1787
G01 X20.9034 Y11.1818
G01 X20.9129 Y11.1856
G01 X20.9212 Y11.1894
G01 X20.9298 Y11.1941
G01 X20.9386 Y11.1994
G01 X20.9461 Y11.2046
G01 X20.9538 Y11.2107
G01 X20.9615 Y11.2175
G01 X21.3491 Y11.6049
G01 X21.4343 Y11.6049
G01 X21.0211 Y11.1918
G01 X21.0121 Y11.1820
G01 X21.0019 Y11.1688
G01 X20.9938 Y11.1560
G01 X20.9865 Y11.1418
G01 X20.9808 Y11.1274
G01 X20.9763 Y11.1121
G01 X20.9733 Y11.0972
G01 X20.9716 Y11.0814
G01 X20.9714 Y11.0659
G01 X20.9727 Y11.0500
G01 X20.9753 Y11.0350
G01 X20.9791 Y11.0208
G01 X20.9846 Y11.0058
G01 X20.9911 Y10.9921
G01 X20.9992 Y10.9783
G01 X21.0078 Y10.9664
G01 X21.0177 Y10.9549
G01 X21.3957 Y10.5770
G01 X21.4037 Y10.5701
G01 X21.4119 Y10.5638
G01 X21.4206 Y10.5579
G01 X21.4295 Y10.5527
G01 X21.4389 Y10.5480
G01 X21.4484 Y10.5439
G01 X21.4583 Y10.5403
G01 X21.4689 Y10.5372
G01 X21.4792 Y10.5349
G01 X21.4894 Y10.5333
G01 X21.4999 Y10.5323
G01 X21.5109 Y10.5320
G01 X23.9583 Y10.5320
G01 X23.9677 Y10.5322
G01 X23.9772 Y10.5331
G01 X23.9877 Y10.5346
G01 X23.9966 Y10.5364
G01 X24.0058 Y10.5389
G01 X24.0145 Y10.5416
G01 X24.0236 Y10.5452
G01 X24.0330 Y10.5494
G01 X24.0440 Y10.5554
G01 X24.0552 Y10.5625
G01 X24.0663 Y10.5710
G01 X24.0757 Y10.5793
G01 X24.3652 Y10.8689
G01 X24.3713 Y10.8756
G01 X24.3776 Y10.8832
G01 X24.3875 Y10.8975
G01 X24.3923 Y10.9057
G01 X24.3965 Y10.9138
G01 X24.4034 Y10.9306
G01 X24.4076 Y10.9444
G01 X24.4105 Y10.9574
G01 X24.4123 Y10.9712
G01 X24.4131 Y10.9845
G01 X24.4131 Y11.6244
G01 X25.1325 Y12.3438
G01 X26.1537 Y12.3438
G01 X26.7984 Y11.6993
G01 X26.8107 Y11.6891
G01 X26.8234 Y11.6804
G01 X26.8373 Y11.6726
G01 X26.8512 Y11.6665
G01 X26.8663 Y11.6614
G01 X26.8814 Y11.6578
G01 X26.8972 Y11.6556
G01 X26.9124 Y11.6548
G01 X26.9283 Y11.6555
G01 X26.9448 Y11.6578
G01 X26.9599 Y11.6614
G01 X26.9750 Y11.6665
G01 X26.9889 Y11.6726
G01 X27.0028 Y11.6804
G01 X27.0155 Y11.6891
G01 X27.0278 Y11.6993
G01 X27.6725 Y12.3438
G01 X28.6937 Y12.3438
G01 X29.3384 Y11.6993
G01 X29.3507 Y11.6891
G01 X29.3634 Y11.6804
G01 X29.3773 Y11.6726
G01 X29.3912 Y11.6665
G01 X29.4063 Y11.6614
G01 X29.4214 Y11.6578
G01 X29.4372 Y11.6556
G01 X29.4524 Y11.6548
G01 X29.4683 Y11.6555
G01 X29.4848 Y11.6578
G01 X29.4999 Y11.6614
G01 X29.5150 Y11.6665
G01 X29.5289 Y11.6726
G01 X29.5428 Y11.6804
G01 X29.5555 Y11.6891
G01 X29.5678 Y11.6993
G01 X30.2125 Y12.3438
G01 X31.2337 Y12.3438
G01 X31.8770 Y11.7006
G01 X31.8864 Y11.6924
G01 X31.8975 Y11.6842
G01 X31.9081 Y11.6776
G01 X31.9198 Y11.6714
G01 X31.9327 Y11.6659
G01 X31.9445 Y11.6619
G01 X31.9573 Y11.6586
G01 X31.9709 Y11.6562
G01 X31.9882 Y11.6548
G01 X32.0064 Y11.6553
G01 X32.0237 Y11.6575
G01 X32.0411 Y11.6617
G01 X32.0575 Y11.6674
G01 X32.0739 Y11.6752
G01 X32.0888 Y11.6842
G01 X32.1031 Y11.6951
G01 X32.1134 Y11.7045
G01 X32.5764 Y12.1676
G01 X32.5764 Y12.0824
G01 X32.1395 Y11.6454
G01 X32.1334 Y11.6386
G01 X32.1274 Y11.6311
G01 X32.1222 Y11.6238
G01 X32.1169 Y11.6155
G01 X32.1125 Y11.6075
G01 X32.1083 Y11.5989
G01 X32.1048 Y11.5906
G01 X32.1015 Y11.5813
G01 X32.0978 Y11.5686
G01 X32.0954 Y11.5563
G01 X32.0937 Y11.5427
G01 X32.0931 Y11.5302
G01 X32.0931 Y10.6987
G01 X32.0938 Y10.6835
G01 X32.0959 Y10.6682
G01 X32.0995 Y10.6527
G01 X32.1040 Y10.6389
G01 X32.1097 Y10.6254
G01 X32.1169 Y10.6119
G01 X32.1250 Y10.5996
G01 X32.1349 Y10.5871
G01 X32.1429 Y10.5785
G01 X32.5764 Y10.1450
G01 X32.5764 Y10.0598
G01 X32.1133 Y10.5230
G01 X32.1035 Y10.5320
G01 X32.0903 Y10.5422
G01 X32.0762 Y10.5510
G01 X32.0613 Y10.5585
G01 X32.0457 Y10.5644
G01 X32.0296 Y10.5688
G01 X32.0131 Y10.5716
G01 X31.9965 Y10.5727
G01 X31.9798 Y10.5722
G01 X31.9667 Y10.5707
G01 X31.9525 Y10.5678
G01 X31.9383 Y10.5637
G01 X31.9248 Y10.5585
G01 X31.9123 Y10.5523
G01 X31.8998 Y10.5449
G01 X31.8890 Y10.5372
G01 X31.8778 Y10.5277
G01 X31.2337 Y9.8838
G01 X30.2125 Y9.8838
G01 X29.5667 Y10.5293
G01 X29.5550 Y10.5389
G01 X29.5411 Y10.5482
G01 X29.5264 Y10.5562
G01 X29.5111 Y10.5626
G01 X29.4958 Y10.5673
G01 X29.4795 Y10.5707
G01 X29.4629 Y10.5725
G01 X29.4475 Y10.5727
G01 X29.4316 Y10.5714
G01 X29.4173 Y10.5690
G01 X29.4030 Y10.5653
G01 X29.3887 Y10.5601
G01 X29.3754 Y10.5540
G01 X29.3628 Y10.5468
G01 X29.3507 Y10.5385
G01 X29.3384 Y10.5283
G01 X28.6937 Y9.8838
G01 X27.6725 Y9.8838
G01 X27.0333 Y10.5230
G01 X27.0252 Y10.5306
G01 X27.0116 Y10.5414
G01 X26.9962 Y10.5511
G01 X26.9882 Y10.5553
G01 X26.9795 Y10.5593
G01 X26.9632 Y10.5653
G01 X26.9455 Y10.5697
G01 X26.9283 Y10.5721
G01 X26.9187 Y10.5727
G01 X26.9097 Y10.5728
G01 X26.8916 Y10.5714
G01 X26.8785 Y10.5692
G01 X26.8652 Y10.5659
G01 X26.8533 Y10.5619
G01 X26.8411 Y10.5568
G01 X26.8300 Y10.5511
G01 X26.8180 Y10.5437
G01 X26.8074 Y10.5359
G01 X26.7970 Y10.5269
G01 X26.1537 Y9.8838
G01 X25.5132 Y9.8838
G01 X25.4950 Y9.8824
G01 X25.4861 Y9.8810
G01 X25.4767 Y9.8791
G01 X25.4600 Y9.8741
G01 X25.4508 Y9.8706
G01 X25.4426 Y9.8668
G01 X25.4305 Y9.8604
G01 X25.4193 Y9.8532
G01 X25.4082 Y9.8447
G01 X25.3983 Y9.8359
G01 X24.8504 Y9.2880
G01 X24.7942 Y9.2370
G01 X24.7366 Y9.1943
G01 X24.6752 Y9.1575
G01 X24.6104 Y9.1268
G01 X24.5429 Y9.1027
G01 X24.4734 Y9.0853
G01 X24.4025 Y9.0748
G01 X24.3267 Y9.0710
G01 X21.5109 Y9.0710
G01 X21.4992 Y9.0706
G01 X21.4867 Y9.0693
G01 X21.4744 Y9.0671
G01 X21.4623 Y9.0639
G01 X21.4505 Y9.0599
G01 X21.4389 Y9.0550
G01 X21.4278 Y9.0493
G01 X21.4171 Y9.0428
G01 X21.4069 Y9.0355
G01 X21.3962 Y9.0265
G01 X20.9410 Y8.5715
G01 X19.9198 Y8.5715
G01 X19.4279 Y9.0635
G01 X19.4207 Y9.0702
G01 X19.4083 Y9.0802
G01 X19.3957 Y9.0887
G01 X19.3817 Y9.0963
G01 X19.3681 Y9.1021
G01 X19.3537 Y9.1069
G01 X19.3382 Y9.1105
G01 X19.3228 Y9.1126
G01 X19.3080 Y9.1132
G01 X16.2336 Y9.1132
G01 X16.2219 Y9.1128
G01 X16.2102 Y9.1116
G01 X16.1978 Y9.1094
G01 X16.1857 Y9.1063
G01 X16.1738 Y9.1024
G01 X16.1616 Y9.0972
G01 X16.1505 Y9.0915
G01 X16.1398 Y9.0850
G01 X16.1285 Y9.0768
G01 X16.1189 Y9.0687
G01 X15.6637 Y8.6137
G01 X14.6425 Y8.6137
G01 X14.1862 Y9.0697
G01 X14.1760 Y9.0782
G01 X14.1641 Y9.0865
G01 X14.1520 Y9.0935
G01 X14.1401 Y9.0993
G01 X14.1273 Y9.1042
G01 X14.1146 Y9.1080
G01 X14.1009 Y9.1109
G01 X14.0877 Y9.1126
G01 X14.0726 Y9.1132
G01 X10.2060 Y9.1131
G01 X10.1921 Y9.1119
G01 X10.1778 Y9.1094
G01 X10.1636 Y9.1057
G01 X10.1500 Y9.1009
G01 X10.1366 Y9.0948
G01 X10.1239 Y9.0877
G01 X10.1118 Y9.0794
G01 X10.1006 Y9.0702
G01 X10.0934 Y9.0635
G01 X9.6437 Y8.6137
G01 X8.6225 Y8.6137
G01 X7.9031 Y9.3331
G01 X7.9031 Y10.3543
G01 X8.5476 Y10.9990
G01 X8.5578 Y11.0113
G01 X8.5661 Y11.0234
G01 X8.5736 Y11.0366
G01 X8.5802 Y11.0511
G01 X8.5852 Y11.0658
G01 X8.5890 Y11.0813
G01 X8.5912 Y11.0963
G01 X8.5921 Y11.1110
G01 X8.5916 Y11.1269
G01 X8.5897 Y11.1420
G01 X8.5863 Y11.1576
G01 X8.5817 Y11.1724
G01 X8.5755 Y11.1870
G01 X8.5683 Y11.2005
G01 X8.5595 Y11.2138
G01 X8.5503 Y11.2253
G01 X8.5423 Y11.2339
G01 X8.0891 Y11.6871
G01 X7.9443 Y11.7471
G01 X8.1991 Y11.7471
G01 X8.6417 Y11.3045
G01 X8.6520 Y11.2958
G01 X8.6632 Y11.2884
G01 X8.6742 Y11.2828
G01 X8.6869 Y11.2782
G01 X8.6947 Y11.2762
G01 X8.7027 Y11.2748
G01 X8.7107 Y11.2739
G01 X8.7181 Y11.2737
G01 X9.5481 Y11.2737
G01 X9.5581 Y11.2742
G01 X9.5688 Y11.2757
G01 X9.5793 Y11.2782
G01 X9.5884 Y11.2813
G01 X9.5982 Y11.2858
G01 X9.6063 Y11.2904
G01 X9.6142 Y11.2958
G01 X9.6225 Y11.3027
G01 X10.0671 Y11.7471
G01 X10.3219 Y11.7471
G01 X9.7639 Y11.1890
G01 X9.7586 Y11.1829
G01 X9.7531 Y11.1754
G01 X9.7480 Y11.1673
G01 X9.7444 Y11.1601
G01 X9.7412 Y11.1526
G01 X9.7383 Y11.1437
G01 X9.7361 Y11.1344
G01 X9.7348 Y11.1264
G01 X9.7341 Y11.1157
G01 X9.7346 Y11.1037
G01 X9.7364 Y11.0915
G01 X9.7394 Y11.0799
G01 X9.7438 Y11.0685
G01 X9.7494 Y11.0578
G01 X9.7562 Y11.0476
G01 X9.7639 Y11.0384
G01 X10.1383 Y10.6640
G01 X10.1444 Y10.6587
G01 X10.1509 Y10.6538
G01 X10.1577 Y10.6494
G01 X10.1649 Y10.6456
G01 X10.1722 Y10.6422
G01 X10.1798 Y10.6395
G01 X10.1941 Y10.6359
G01 X10.2036 Y10.6346
G01 X10.2136 Y10.6342
G01 X14.0726 Y10.6342
G01 X14.0799 Y10.6344
G01 X14.0880 Y10.6352
G01 X14.0959 Y10.6367
G01 X14.1038 Y10.6387
G01 X14.1115 Y10.6413
G01 X14.1189 Y10.6444
G01 X14.1261 Y10.6481
G01 X14.1320 Y10.6516
G01 X14.1418 Y10.6587
G01 X14.1503 Y10.6664
G01 X14.5250 Y11.0413
G01 X14.5317 Y11.0498
G01 X14.5382 Y11.0602
G01 X14.5430 Y11.0698
G01 X14.5472 Y11.0811
G01 X14.5499 Y11.0916
G01 X14.5517 Y11.1037
G01 X14.5521 Y11.1157
G01 X14.5514 Y11.1265
G01 X14.5499 Y11.1359
G01 X14.5476 Y11.1450
G01 X14.5450 Y11.1526
G01 X14.5413 Y11.1614
G01 X14.5375 Y11.1686
G01 X14.5325 Y11.1765
G01 X14.5276 Y11.1830
G01 X14.5213 Y11.1901
G01 X13.8631 Y11.8484
G01 X13.8631 Y12.9192
G01 X14.4764 Y13.5325
G01 X14.4764 Y13.2777
G01 X14.0739 Y12.8752
G01 X14.0652 Y12.8649
G01 X14.0578 Y12.8537
G01 X14.0518 Y12.8416
G01 X14.0493 Y12.8352
G01 X14.0469 Y12.8274
G01 X14.0440 Y12.8130
G01 X14.0431 Y12.7988
G01 X14.0431 Y11.9688
G01 X14.0436 Y11.9588
G01 X14.0448 Y11.9493
G01 X14.0469 Y11.9402
G01 X14.0498 Y11.9311
G01 X14.0534 Y11.9224
G01 X14.0570 Y11.9152
G01 X14.0621 Y11.9071
G01 X14.0676 Y11.8996
G01 X14.0739 Y11.8924
G01 X14.6603 Y11.3060
G01 X14.6710 Y11.2966
G01 X14.6822 Y11.2891
G01 X14.6942 Y11.2829
G01 X14.7081 Y11.2780
G01 X14.7212 Y11.2751
G01 X14.7293 Y11.2742
G01 X14.7361 Y11.2738
G01 X15.5681 Y11.2738
G01 X15.5823 Y11.2747
G01 X15.5955 Y11.2773
G01 X15.6095 Y11.2819
G01 X15.6217 Y11.2877
G01 X15.6330 Y11.2950
G01 X15.6384 Y11.2992
G01 X15.6445 Y11.3046
G01 X16.0470 Y11.7071
G01 X16.3018 Y11.7071
G01 X15.7839 Y11.1891
G01 X15.7778 Y11.1820
G01 X15.7730 Y11.1755
G01 X15.7680 Y11.1673
G01 X15.7638 Y11.1590
G01 X15.7607 Y11.1515
G01 X15.7578 Y11.1424
G01 X15.7558 Y11.1333
G01 X15.7545 Y11.1238
G01 X15.7541 Y11.1118
G01 X15.7548 Y11.1010
G01 X15.7566 Y11.0904
G01 X15.7598 Y11.0785
G01 X15.7638 Y11.0685
G01 X15.7693 Y11.0578
G01 X15.7753 Y11.0488
G01 X15.7830 Y11.0393
G01 X16.1573 Y10.6650
G01 X16.1666 Y10.6570
G01 X16.1765 Y10.6502
G01 X16.1873 Y10.6444
G01 X16.1984 Y10.6399
G01 X16.2076 Y10.6373
G01 X16.2156 Y10.6356
G01 X16.2248 Y10.6345
G01 X16.2336 Y10.6342
G01 X19.3921 Y10.6342
G01 X19.4009 Y10.6345
G01 X19.4101 Y10.6356
G01 X19.4195 Y10.6376
G01 X19.4284 Y10.6403
G01 X19.4397 Y10.6450
G01 X19.4492 Y10.6502
G01 X19.4591 Y10.6570
G01 X19.4684 Y10.6650
G01 X19.8014 Y10.9982
G01 X19.8090 Y11.0076
G01 X19.8155 Y11.0180
G01 X19.8208 Y11.0288
G01 X19.8245 Y11.0389
G01 X19.8275 Y11.0508
G01 X19.8291 Y11.0627
G01 X19.8294 Y11.0735
G01 X19.8285 Y11.0857
G01 X19.8272 Y11.0937
G01 X19.8249 Y11.1028
G01 X19.8218 Y11.1118
G01 X19.8186 Y11.1192
G01 X19.8148 Y11.1264
G01 X19.8098 Y11.1343
G01 X19.8049 Y11.1408
G01 X19.7986 Y11.1479
G01 X19.1404 Y11.8062
G01 X19.1404 Y12.8770
G01 X19.7537 Y13.4903
G01 X19.7537 Y13.2355
G01 X19.3512 Y12.8330
G01 X19.3425 Y12.8227
G01 X19.3379 Y12.8161
G01 X19.3343 Y12.8102
G01 X19.3285 Y12.7980
G01 X19.3239 Y12.7840
G01 X19.3213 Y12.7708
G01 X19.3204 Y12.7566
G01 X19.3204 Y11.9246
G01 X19.3208 Y11.9178
G01 X19.3217 Y11.9097
G01 X19.3246 Y11.8966
G01 X19.3295 Y11.8827
G01 X19.3357 Y11.8707
G01 X19.3432 Y11.8595
G01 X19.3526 Y11.8488
G01 X19.9390 Y11.2624
G01 X19.9462 Y11.2561
G01 X19.9537 Y11.2506
G01 X19.9618 Y11.2455
G01 X19.9702 Y11.2413
G01 X19.9790 Y11.2378
G01 X19.9880 Y11.2351
G01 X19.9959 Y11.2333
G01 X20.0054 Y11.2321
G01 X20.0154 Y11.2316
G01 X20.8454 Y11.2316
G01 X20.8596 Y11.2325
G01 X20.8740 Y11.2354
G01 X20.8868 Y11.2397
G01 X20.8990 Y11.2455
G01 X20.9103 Y11.2528
G01 X20.9167 Y11.2578
G01 X20.9218 Y11.2624
G01 X21.3243 Y11.6649
G01 X21.5791 Y11.6649
G01 X21.0612 Y11.1469
G01 X21.0551 Y11.1398
G01 X21.0495 Y11.1320
G01 X21.0447 Y11.1241
G01 X21.0411 Y11.1168
G01 X21.0375 Y11.1079
G01 X21.0351 Y11.1002
G01 X21.0331 Y11.0911
G01 X21.0318 Y11.0816
G01 X21.0314 Y11.0708
G01 X21.0321 Y11.0588
G01 X21.0339 Y11.0482
G01 X21.0371 Y11.0363
G01 X21.0411 Y11.0263
G01 X21.0466 Y11.0156
G01 X21.0534 Y11.0054
G01 X21.0603 Y10.9971
G01 X21.4346 Y10.6228
G01 X21.4448 Y10.6140
G01 X21.4561 Y10.6066
G01 X21.4682 Y10.6006
G01 X21.4809 Y10.5961
G01 X21.4888 Y10.5942
G01 X21.4955 Y10.5930
G01 X21.5036 Y10.5922
G01 X21.5109 Y10.5920
G01 X23.9579 Y10.5920
G01 X23.9706 Y10.5927
G01 X23.9827 Y10.5948
G01 X23.9943 Y10.5981
G01 X24.0067 Y10.6034
G01 X24.0138 Y10.6072
G01 X24.0206 Y10.6116
G01 X24.0283 Y10.6174
G01 X24.0343 Y10.6228
G01 X24.3214 Y10.9099
G01 X24.3294 Y10.9189
G01 X24.3364 Y10.9289
G01 X24.3429 Y10.9408
G01 X24.3473 Y10.9520
G01 X24.3496 Y10.9597
G01 X24.3516 Y10.9691
G01 X24.3527 Y10.9783
G01 X24.3531 Y10.9864
G01 X24.3531 Y11.6492
G01 X25.1077 Y12.4038
G01 X26.1785 Y12.4038
G01 X26.8378 Y11.7446
G01 X26.8460 Y11.7376
G01 X26.8549 Y11.7315
G01 X26.8630 Y11.7269
G01 X26.8728 Y11.7224
G01 X26.8831 Y11.7190
G01 X26.8924 Y11.7168
G01 X26.9016 Y11.7154
G01 X26.9124 Y11.7148
G01 X26.9231 Y11.7153
G01 X26.9338 Y11.7168
G01 X26.9443 Y11.7193
G01 X26.9534 Y11.7224
G01 X26.9619 Y11.7262
G01 X26.9713 Y11.7315
G01 X26.9802 Y11.7376
G01 X26.9884 Y11.7446
G01 X27.6477 Y12.4038
G01 X28.7185 Y12.4038
G01 X29.3778 Y11.7446
G01 X29.3860 Y11.7376
G01 X29.3949 Y11.7315
G01 X29.4030 Y11.7269
G01 X29.4128 Y11.7224
G01 X29.4231 Y11.7190
G01 X29.4324 Y11.7168
G01 X29.4416 Y11.7154
G01 X29.4524 Y11.7148
G01 X29.4631 Y11.7153
G01 X29.4738 Y11.7168
G01 X29.4843 Y11.7193
G01 X29.4934 Y11.7224
G01 X29.5019 Y11.7262
G01 X29.5113 Y11.7315
G01 X29.5202 Y11.7376
G01 X29.5284 Y11.7446
G01 X30.1877 Y12.4038
G01 X31.2585 Y12.4038
G01 X31.9178 Y11.7446
G01 X31.9249 Y11.7385
G01 X31.9327 Y11.7329
G01 X31.9406 Y11.7281
G01 X31.9492 Y11.7239
G01 X31.9579 Y11.7205
G01 X31.9671 Y11.7179
G01 X31.9763 Y11.7161
G01 X31.9858 Y11.7150
G01 X31.9966 Y11.7148
G01 X32.0073 Y11.7157
G01 X32.0180 Y11.7176
G01 X32.0295 Y11.7209
G01 X32.0408 Y11.7256
G01 X32.0503 Y11.7308
G01 X32.0593 Y11.7368
G01 X32.0676 Y11.7437
G01 X32.6364 Y12.3124
G01 X32.6364 Y12.0576
G01 X32.1839 Y11.6051
G01 X32.1752 Y11.5948
G01 X32.1684 Y11.5846
G01 X32.1622 Y11.5726
G01 X32.1576 Y11.5599
G01 X32.1556 Y11.5521
G01 X32.1542 Y11.5441
G01 X32.1533 Y11.5361
G01 X32.1531 Y11.5287
G01 X32.1531 Y10.6987
G01 X32.1536 Y10.6887
G01 X32.1551 Y10.6780
G01 X32.1576 Y10.6675
G01 X32.1607 Y10.6584
G01 X32.1652 Y10.6486
G01 X32.1698 Y10.6405
G01 X32.1752 Y10.6326
G01 X32.1821 Y10.6243
G01 X32.6364 Y10.1698
G01 X32.6364 Y9.9150
G01 X32.0675 Y10.4838
G01 X32.0592 Y10.4907
G01 X32.0502 Y10.4967
G01 X32.0407 Y10.5019
G01 X32.0308 Y10.5061
G01 X32.0205 Y10.5093
G01 X32.0099 Y10.5114
G01 X31.9992 Y10.5126
G01 X31.9884 Y10.5126
G01 X31.9789 Y10.5118
G01 X31.9697 Y10.5102
G01 X31.9592 Y10.5074
G01 X31.9503 Y10.5041
G01 X31.9418 Y10.5001
G01 X31.9336 Y10.4953
G01 X31.9260 Y10.4899
G01 X31.9177 Y10.4829
G01 X31.2585 Y9.8238
G01 X30.1877 Y9.8238
G01 X29.5284 Y10.4830
G01 X29.5202 Y10.4900
G01 X29.5113 Y10.4961
G01 X29.5032 Y10.5007
G01 X29.4934 Y10.5052
G01 X29.4831 Y10.5086
G01 X29.4726 Y10.5111
G01 X29.4619 Y10.5124
G01 X29.4511 Y10.5128
G01 X29.4416 Y10.5122
G01 X29.4309 Y10.5105
G01 X29.4219 Y10.5083
G01 X29.4117 Y10.5047
G01 X29.4030 Y10.5007
G01 X29.3936 Y10.4953
G01 X29.3860 Y10.4900
G01 X29.3778 Y10.4830
G01 X28.7185 Y9.8238
G01 X27.6477 Y9.8238
G01 X26.9875 Y10.4838
G01 X26.9780 Y10.4916
G01 X26.9680 Y10.4981
G01 X26.9570 Y10.5037
G01 X26.9469 Y10.5075
G01 X26.9353 Y10.5105
G01 X26.9246 Y10.5122
G01 X26.9124 Y10.5128
G01 X26.9004 Y10.5121
G01 X26.8909 Y10.5105
G01 X26.8819 Y10.5083
G01 X26.8728 Y10.5052
G01 X26.8654 Y10.5019
G01 X26.8582 Y10.4981
G01 X26.8504 Y10.4932
G01 X26.8428 Y10.4874
G01 X26.8367 Y10.4820
G01 X26.1785 Y9.8238
G01 X25.5146 Y9.8238
G01 X25.5039 Y9.8231
G01 X25.4918 Y9.8210
G01 X25.4802 Y9.8176
G01 X25.4689 Y9.8129
G01 X25.4607 Y9.8085
G01 X25.4539 Y9.8042
G01 X25.4462 Y9.7984
G01 X25.4393 Y9.7921
G01 X24.8918 Y9.2445
G01 X24.8323 Y9.1906
G01 X24.7700 Y9.1444
G01 X24.7035 Y9.1045
G01 X24.6334 Y9.0713
G01 X24.5603 Y9.0452
G01 X24.4851 Y9.0264
G01 X24.4084 Y9.0150
G01 X24.3282 Y9.0110
G01 X21.5109 Y9.0110
G01 X21.5021 Y9.0107
G01 X21.4941 Y9.0097
G01 X21.4861 Y9.0082
G01 X21.4771 Y9.0057
G01 X21.4695 Y9.0030
G01 X21.4622 Y8.9996
G01 X21.4550 Y8.9958
G01 X21.4482 Y8.9914
G01 X21.4417 Y8.9865
G01 X21.4356 Y8.9812
G01 X20.9658 Y8.5115
G01 X19.8950 Y8.5115
G01 X19.3821 Y9.0243
G01 X19.3747 Y9.0304
G01 X19.3659 Y9.0366
G01 X19.3564 Y9.0418
G01 X19.3479 Y9.0456
G01 X19.3377 Y9.0491
G01 X19.3284 Y9.0513
G01 X19.3177 Y9.0528
G01 X19.3077 Y9.0532
G01 X16.2336 Y9.0532
G01 X16.2263 Y9.0530
G01 X16.2182 Y9.0522
G01 X16.2103 Y9.0507
G01 X16.2024 Y9.0487
G01 X16.1934 Y9.0456
G01 X16.1860 Y9.0424
G01 X16.1788 Y9.0386
G01 X16.1709 Y9.0336
G01 X16.1644 Y9.0287
G01 X16.1583 Y9.0234
G01 X15.6885 Y8.5537
G01 X14.6177 Y8.5537
G01 X14.1479 Y9.0234
G01 X14.1408 Y9.0295
G01 X14.1330 Y9.0351
G01 X14.1261 Y9.0393
G01 X14.1178 Y9.0435
G01 X14.1089 Y9.0471
G01 X14.1012 Y9.0495
G01 X14.0921 Y9.0515
G01 X14.0826 Y9.0528
G01 X14.0726 Y9.0532
G01 X10.2090 Y9.0531
G01 X10.1982 Y9.0522
G01 X10.1888 Y9.0504
G01 X10.1798 Y9.0479
G01 X10.1709 Y9.0446
G01 X10.1624 Y9.0406
G01 X10.1542 Y9.0358
G01 X10.1466 Y9.0304
G01 X10.1392 Y9.0243
G01 X9.6685 Y8.5537
G01 X8.5977 Y8.5537
G01 X7.8431 Y9.3083
G01 X7.8431 Y10.3791
G01 X8.5023 Y11.0384
G01 X8.5093 Y11.0466
G01 X8.5154 Y11.0555
G01 X8.5207 Y11.0649
G01 X8.5250 Y11.0748
G01 X8.5283 Y11.0851
G01 X8.5304 Y11.0942
G01 X8.5317 Y11.1049
G01 X8.5321 Y11.1157
G01 X8.5315 Y11.1252
G01 X8.5298 Y11.1359
G01 X8.5276 Y11.1449
G01 X8.5240 Y11.1551
G01 X8.5200 Y11.1638
G01 X8.5146 Y11.1732
G01 X8.5084 Y11.1820
G01 X8.5023 Y11.1890
G01 X7.9443 Y11.7471
G01 X7.7994 Y11.8071
G01 X8.2240 Y11.8071
G01 X8.6827 Y11.3483
G01 X8.6883 Y11.3435
G01 X8.6935 Y11.3402
G01 X8.6990 Y11.3375
G01 X8.7048 Y11.3355
G01 X8.7108 Y11.3342
G01 X8.7181 Y11.3337
G01 X9.5481 Y11.3337
G01 X9.5579 Y11.3347
G01 X9.5672 Y11.3375
G01 X9.5748 Y11.3415
G01 X9.5826 Y11.3475
G01 X10.0422 Y11.8071
G01 X10.4668 Y11.8071
G01 X9.8087 Y11.1491
G01 X9.8039 Y11.1435
G01 X9.8006 Y11.1383
G01 X9.7975 Y11.1317
G01 X9.7953 Y11.1247
G01 X9.7943 Y11.1186
G01 X9.7941 Y11.1125
G01 X9.7946 Y11.1064
G01 X9.7959 Y11.1004
G01 X9.7979 Y11.0946
G01 X9.8006 Y11.0891
G01 X9.8039 Y11.0839
G01 X9.8079 Y11.0792
G01 X10.1792 Y10.7079
G01 X10.1849 Y10.7033
G01 X10.1912 Y10.6995
G01 X10.1980 Y10.6967
G01 X10.2051 Y10.6949
G01 X10.2136 Y10.6942
G01 X14.0726 Y10.6942
G01 X14.0799 Y10.6947
G01 X14.0871 Y10.6963
G01 X14.0939 Y10.6990
G01 X14.1003 Y10.7026
G01 X14.1079 Y10.7088
G01 X14.4784 Y11.0793
G01 X14.4823 Y11.0840
G01 X14.4850 Y11.0880
G01 X14.4879 Y11.0935
G01 X14.4896 Y11.0981
G01 X14.4909 Y11.1028
G01 X14.4919 Y11.1088
G01 X14.4921 Y11.1150
G01 X14.4918 Y11.1199
G01 X14.4900 Y11.1283
G01 X14.4868 Y11.1362
G01 X14.4823 Y11.1435
G01 X14.4775 Y11.1491
G01 X13.8031 Y11.8235
G01 X13.8031 Y12.9441
G01 X14.5364 Y13.6774
G01 X14.5364 Y13.2528
G01 X14.1177 Y12.8342
G01 X14.1129 Y12.8286
G01 X14.1096 Y12.8234
G01 X14.1065 Y12.8168
G01 X14.1046 Y12.8109
G01 X14.1035 Y12.8049
G01 X14.1031 Y12.7988
G01 X14.1032 Y11.9651
G01 X14.1049 Y11.9555
G01 X14.1079 Y11.9474
G01 X14.1122 Y11.9400
G01 X14.1177 Y11.9334
G01 X14.7027 Y11.3484
G01 X14.7073 Y11.3444
G01 X14.7124 Y11.3409
G01 X14.7178 Y11.3381
G01 X14.7248 Y11.3356
G01 X14.7308 Y11.3343
G01 X14.7381 Y11.3338
G01 X15.5681 Y11.3338
G01 X15.5742 Y11.3342
G01 X15.5802 Y11.3353
G01 X15.5872 Y11.3376
G01 X15.5927 Y11.3403
G01 X15.5979 Y11.3436
G01 X15.6035 Y11.3484
G01 X16.0221 Y11.7671
G01 X16.4467 Y11.7671
G01 X15.8287 Y11.1491
G01 X15.8239 Y11.1435
G01 X15.8205 Y11.1384
G01 X15.8174 Y11.1317
G01 X15.8153 Y11.1247
G01 X15.8143 Y11.1187
G01 X15.8141 Y11.1125
G01 X15.8146 Y11.1064
G01 X15.8159 Y11.1004
G01 X15.8179 Y11.0946
G01 X15.8205 Y11.0891
G01 X15.8239 Y11.0840
G01 X15.8278 Y11.0793
G01 X16.1983 Y10.7088
G01 X16.2029 Y10.7047
G01 X16.2069 Y10.7019
G01 X16.2123 Y10.6990
G01 X16.2168 Y10.6971
G01 X16.2251 Y10.6949
G01 X16.2336 Y10.6942
G01 X19.3921 Y10.6942
G01 X19.4006 Y10.6949
G01 X19.4089 Y10.6971
G01 X19.4134 Y10.6990
G01 X19.4188 Y10.7019
G01 X19.4228 Y10.7047
G01 X19.4274 Y10.7088
G01 X19.7557 Y11.0371
G01 X19.7589 Y11.0408
G01 X19.7623 Y11.0458
G01 X19.7646 Y11.0502
G01 X19.7669 Y11.0559
G01 X19.7685 Y11.0618
G01 X19.7693 Y11.0679
G01 X19.7694 Y11.0740
G01 X19.7689 Y11.0789
G01 X19.7669 Y11.0872
G01 X19.7641 Y11.0940
G01 X19.7603 Y11.1003
G01 X19.7548 Y11.1069
G01 X19.0804 Y11.7813
G01 X19.0804 Y12.9019
G01 X19.8137 Y13.6352
G01 X19.8137 Y13.2106
G01 X19.3950 Y12.7920
G01 X19.3902 Y12.7864
G01 X19.3869 Y12.7812
G01 X19.3842 Y12.7757
G01 X19.3819 Y12.7687
G01 X19.3808 Y12.7627
G01 X19.3804 Y12.7566
G01 X19.3804 Y11.9266
G01 X19.3808 Y11.9205
G01 X19.3819 Y11.9145
G01 X19.3842 Y11.9075
G01 X19.3869 Y11.9020
G01 X19.3910 Y11.8958
G01 X19.3950 Y11.8912
G01 X19.9800 Y11.3062
G01 X19.9876 Y11.3000
G01 X19.9951 Y11.2959
G01 X20.0033 Y11.2931
G01 X20.0117 Y11.2917
G01 X20.8454 Y11.2916
G01 X20.8515 Y11.2920
G01 X20.8575 Y11.2931
G01 X20.8634 Y11.2950
G01 X20.8700 Y11.2981
G01 X20.8752 Y11.3014
G01 X20.8808 Y11.3062
G01 X21.2994 Y11.7249
G01 X21.7240 Y11.7249
G01 X21.1060 Y11.1069
G01 X21.1012 Y11.1013
G01 X21.0973 Y11.0951
G01 X21.0943 Y11.0884
G01 X21.0923 Y11.0813
G01 X21.0915 Y11.0752
G01 X21.0914 Y11.0691
G01 X21.0921 Y11.0630
G01 X21.0932 Y11.0582
G01 X21.0952 Y11.0524
G01 X21.0978 Y11.0469
G01 X21.1012 Y11.0418
G01 X21.1051 Y11.0371
G01 X21.4765 Y10.6657
G01 X21.4822 Y10.6611
G01 X21.4896 Y10.6568
G01 X21.4976 Y10.6538
G01 X21.5060 Y10.6522
G01 X23.9579 Y10.6520
G01 X23.9628 Y10.6522
G01 X23.9689 Y10.6532
G01 X23.9747 Y10.6549
G01 X23.9804 Y10.6573
G01 X23.9877 Y10.6618
G01 X23.9933 Y10.6666
G01 X24.2785 Y10.9518
G01 X24.2825 Y10.9564
G01 X24.2860 Y10.9615
G01 X24.2888 Y10.9669
G01 X24.2909 Y10.9727
G01 X24.2926 Y10.9798
G01 X24.2931 Y10.9872
G01 X24.2931 Y11.6741
G01 X25.0828 Y12.4638
G01 X26.2034 Y12.4638
G01 X26.8786 Y11.7886
G01 X26.8864 Y11.7826
G01 X26.8951 Y11.7782
G01 X26.9033 Y11.7758
G01 X26.9131 Y11.7748
G01 X26.9229 Y11.7758
G01 X26.9322 Y11.7786
G01 X26.9398 Y11.7826
G01 X26.9476 Y11.7886
G01 X27.6228 Y12.4638
G01 X28.7434 Y12.4638
G01 X29.4186 Y11.7886
G01 X29.4264 Y11.7826
G01 X29.4351 Y11.7782
G01 X29.4433 Y11.7758
G01 X29.4531 Y11.7748
G01 X29.4629 Y11.7758
G01 X29.4722 Y11.7786
G01 X29.4798 Y11.7826
G01 X29.4876 Y11.7886
G01 X30.1628 Y12.4638
G01 X31.2834 Y12.4638
G01 X31.9587 Y11.7885
G01 X31.9664 Y11.7825
G01 X31.9752 Y11.7781
G01 X31.9846 Y11.7755
G01 X31.9932 Y11.7748
G01 X32.0029 Y11.7757
G01 X32.0111 Y11.7781
G01 X32.0199 Y11.7825
G01 X32.0276 Y11.7885
G01 X32.6964 Y12.4573
G01 X32.6964 Y12.0327
G01 X32.2277 Y11.5641
G01 X32.2237 Y11.5595
G01 X32.2202 Y11.5544
G01 X32.2169 Y11.5478
G01 X32.2149 Y11.5420
G01 X32.2136 Y11.5360
G01 X32.2131 Y11.5287
G01 X32.2131 Y10.6987
G01 X32.2138 Y10.6902
G01 X32.2165 Y10.6807
G01 X32.2209 Y10.6720
G01 X32.2269 Y10.6642
G01 X32.6964 Y10.1947
G01 X32.6964 Y9.7701
G01 X32.0275 Y10.4390
G01 X32.0198 Y10.4450
G01 X32.0110 Y10.4494
G01 X32.0016 Y10.4520
G01 X31.9930 Y10.4527
G01 X31.9833 Y10.4518
G01 X31.9751 Y10.4494
G01 X31.9663 Y10.4450
G01 X31.9586 Y10.4390
G01 X31.2834 Y9.7638
G01 X30.1628 Y9.7638
G01 X29.4876 Y10.4390
G01 X29.4798 Y10.4450
G01 X29.4711 Y10.4494
G01 X29.4629 Y10.4518
G01 X29.4531 Y10.4528
G01 X29.4433 Y10.4518
G01 X29.4340 Y10.4490
G01 X29.4264 Y10.4450
G01 X29.4186 Y10.4390
G01 X28.7434 Y9.7638
G01 X27.6228 Y9.7638
G01 X26.9476 Y10.4390
G01 X26.9398 Y10.4450
G01 X26.9311 Y10.4494
G01 X26.9216 Y10.4521
G01 X26.9156 Y10.4527
G01 X26.9106 Y10.4527
G01 X26.9021 Y10.4516
G01 X26.8940 Y10.4490
G01 X26.8864 Y10.4450
G01 X26.8786 Y10.4390
G01 X26.2034 Y9.7638
G01 X25.5166 Y9.7638
G01 X25.5117 Y9.7636
G01 X25.5056 Y9.7626
G01 X25.5009 Y9.7613
G01 X25.4952 Y9.7590
G01 X25.4878 Y9.7547
G01 X25.4812 Y9.7492
G01 X24.9332 Y9.2010
G01 X24.8704 Y9.1442
G01 X24.8034 Y9.0944
G01 X24.7318 Y9.0515
G01 X24.6563 Y9.0158
G01 X24.5778 Y8.9877
G01 X24.4968 Y8.9675
G01 X24.4143 Y8.9552
G01 X24.3297 Y8.9510
G01 X21.5109 Y8.9510
G01 X21.5036 Y8.9505
G01 X21.4953 Y8.9485
G01 X21.4885 Y8.9457
G01 X21.4822 Y8.9419
G01 X21.4765 Y8.9373
G01 X20.9907 Y8.4515
G01 X19.8701 Y8.4515
G01 X19.3421 Y8.9795
G01 X19.3344 Y8.9855
G01 X19.3268 Y8.9894
G01 X19.3174 Y8.9923
G01 X19.3077 Y8.9932
G01 X16.2336 Y8.9932
G01 X16.2263 Y8.9927
G01 X16.2191 Y8.9911
G01 X16.2123 Y8.9884
G01 X16.2049 Y8.9841
G01 X16.1992 Y8.9795
G01 X15.7134 Y8.4937
G01 X14.5928 Y8.4937
G01 X14.1070 Y8.9795
G01 X14.1003 Y8.9848
G01 X14.0928 Y8.9890
G01 X14.0859 Y8.9914
G01 X14.0775 Y8.9930
G01 X10.2112 Y8.9932
G01 X10.2027 Y8.9920
G01 X10.1945 Y8.9894
G01 X10.1869 Y8.9855
G01 X10.1792 Y8.9795
G01 X9.6934 Y8.4937
G01 X8.5728 Y8.4937
G01 X7.7831 Y9.2834
G01 X7.7831 Y10.4040
G01 X8.4583 Y11.0792
G01 X8.4643 Y11.0870
G01 X8.4687 Y11.0957
G01 X8.4711 Y11.1039
G01 X8.4721 Y11.1137
G01 X8.4711 Y11.1235
G01 X8.4683 Y11.1328
G01 X8.4643 Y11.1404
G01 X8.4583 Y11.1482
G01 X7.7994 Y11.8071
G00 Z2.0000
G00 X7.7995 Y12.9604
G01 F60.00
G01 Z0.0000
G01 F120.00
G01 X8.5564 Y13.7173
G01 X8.5564 Y13.2927
G01 X8.2241 Y12.9604
G01 X7.7995 Y12.9604
G01 X7.9444 Y13.0204
G01 X8.4964 Y13.5724
G01 X8.4964 Y13.3176
G01 X8.1992 Y13.0204
G01 X7.9444 Y13.0204
G01 X8.0892 Y13.0804
G01 X8.4364 Y13.4276
G01 X8.4364 Y13.3424
G01 X8.1744 Y13.0804
G01 X8.0892 Y13.0804
G00 Z2.0000
G00 X9.7097 Y13.7174
G01 F60.00
G01 Z0.0000
G01 F120.00
G01 X9.7097 Y13.2928
G01 X10.0421 Y12.9604
G01 X10.4667 Y12.9604
G01 X9.7097 Y13.7174
G01 X9.7697 Y13.5725
G01 X9.7697 Y13.3177
G01 X10.0670 Y13.0204
G01 X10.3218 Y13.0204
G01 X9.7697 Y13.5725
G01 X9.8297 Y13.4277
G01 X9.8297 Y13.3425
G01 X10.0918 Y13.0804
G01 X10.1770 Y13.0804
G01 X9.8297 Y13.4277
G00 Z2.0000
G00 X14.6663 Y11.0622
G01 F60.00
G01 Z0.0000
G01 F120.00
G01 X14.6689 Y11.0752
G01 X14.6707 Y11.0878
G01 X14.6718 Y11.1014
G01 X14.6721 Y11.1145
G01 X14.6718 Y11.1272
G01 X14.6706 Y11.1401
G01 X14.6689 Y11.1523
G01 X14.6663 Y11.1653
G01 X14.6833 Y11.1604
G01 X14.6999 Y11.1570
G01 X14.7174 Y11.1547
G01 X14.7347 Y11.1538
G01 X15.5681 Y11.1538
G01 X15.5861 Y11.1545
G01 X15.6040 Y11.1566
G01 X15.6222 Y11.1603
G01 X15.6399 Y11.1653
G01 X15.6373 Y11.1523
G01 X15.6356 Y11.1401
G01 X15.6344 Y11.1272
G01 X15.6341 Y11.1145
G01 X15.6344 Y11.1014
G01 X15.6355 Y11.0878
G01 X15.6373 Y11.0752
G01 X15.6399 Y11.0622
G01 X15.6229 Y11.0671
G01 X15.6063 Y11.0705
G01 X15.5888 Y11.0728
G01 X15.5715 Y11.0737
G01 X14.7381 Y11.0737
G01 X14.7201 Y11.0730
G01 X14.7022 Y11.0709
G01 X14.6840 Y11.0672
G01 X14.6663 Y11.0622
G00 Z2.0000
G00 X15.8898 Y13.3877
G01 F60.00
G01 Z0.0000
G01 F120.00
G01 X16.1571 Y13.1204
G01 X16.0719 Y13.1204
G01 X15.8898 Y13.3025
G01 X15.8898 Y13.3877
G01 X15.8298 Y13.5325
G01 X16.3019 Y13.0604
G01 X16.0471 Y13.0604
G01 X15.8298 Y13.2777
G01 X15.8298 Y13.5325
G01 X15.7698 Y13.6774
G01 X16.4468 Y13.0004
G01 X16.0222 Y13.0004
G01 X15.7698 Y13.2528
G01 X15.7698 Y13.6774
G00 Z2.0000
G00 X19.9436 Y11.0200
G01 F60.00
G01 Z0.0000
G01 F120.00
G01 X19.9462 Y11.0330
G01 X19.9480 Y11.0456
G01 X19.9491 Y11.0592
G01 X19.9494 Y11.0723
G01 X19.9491 Y11.0850
G01 X19.9479 Y11.0979
G01 X19.9462 Y11.1101
G01 X19.9436 Y11.1231
G01 X19.9606 Y11.1182
G01 X19.9772 Y11.1148
G01 X19.9947 Y11.1125
G01 X20.0120 Y11.1116
G01 X20.8454 Y11.1116
G01 X20.8634 Y11.1123
G01 X20.8813 Y11.1144
G01 X20.8995 Y11.1181
G01 X20.9172 Y11.1231
G01 X20.9146 Y11.1101
G01 X20.9129 Y11.0979
G01 X20.9117 Y11.0850
G01 X20.9114 Y11.0723
G01 X20.9117 Y11.0592
G01 X20.9128 Y11.0456
G01 X20.9146 Y11.0330
G01 X20.9172 Y11.0200
G01 X20.9002 Y11.0249
G01 X20.8836 Y11.0283
G01 X20.8661 Y11.0306
G01 X20.8488 Y11.0315
G01 X20.0154 Y11.0315
G01 X19.9974 Y11.0308
G01 X19.9795 Y11.0287
G01 X19.9613 Y11.0250
G01 X19.9436 Y11.0200
G00 Z2.0000
G00 X21.1670 Y13.3456
G01 F60.00
G01 Z0.0000
G01 F120.00
G01 X21.4344 Y13.0782
G01 X21.3492 Y13.0782
G01 X21.1670 Y13.2604
G01 X21.1670 Y13.3456
G01 X21.1070 Y13.4904
G01 X21.5792 Y13.0182
G01 X21.3244 Y13.0182
G01 X21.1070 Y13.2356
G01 X21.1070 Y13.4904
G01 X21.0470 Y13.6353
G01 X21.7241 Y12.9582
G01 X21.2995 Y12.9582
G01 X21.0470 Y13.2107
G01 X21.0470 Y13.6353
G00 Z2.0000
G00 X26.8616 Y11.6006
G01 F60.00
G01 Z0.0000
G01 F120.00
G01 X26.8745 Y11.5981
G01 X26.8868 Y11.5963
G01 X26.8996 Y11.5952
G01 X26.9124 Y11.5948
G01 X26.9255 Y11.5951
G01 X26.9391 Y11.5963
G01 X26.9517 Y11.5981
G01 X26.9646 Y11.6006
G01 X26.9598 Y11.5840
G01 X26.9563 Y11.5670
G01 X26.9540 Y11.5495
G01 X26.9531 Y11.5322
G01 X26.9531 Y10.6988
G01 X26.9538 Y10.6808
G01 X26.9559 Y10.6629
G01 X26.9596 Y10.6447
G01 X26.9646 Y10.6270
G01 X26.9517 Y10.6295
G01 X26.9394 Y10.6313
G01 X26.9266 Y10.6324
G01 X26.9138 Y10.6328
G01 X26.9007 Y10.6325
G01 X26.8871 Y10.6313
G01 X26.8745 Y10.6295
G01 X26.8616 Y10.6270
G01 X26.8664 Y10.6436
G01 X26.8699 Y10.6606
G01 X26.8722 Y10.6781
G01 X26.8731 Y10.6954
G01 X26.8731 Y11.5288
G01 X26.8724 Y11.5468
G01 X26.8703 Y11.5647
G01 X26.8666 Y11.5829
G01 X26.8616 Y11.6006
G00 Z2.0000
G00 X26.6785 Y10.6634
G01 F60.00
G01 Z0.0000
G01 F120.00
G01 X26.6847 Y10.6710
G01 X26.6893 Y10.6797
G01 X26.6921 Y10.6890
G01 X26.6931 Y10.6988
G01 X26.6931 Y11.5300
G01 X26.6921 Y11.5386
G01 X26.6893 Y11.5479
G01 X26.6847 Y11.5566
G01 X26.6793 Y11.5633
G01 X26.0935 Y12.1492
G01 X26.0859 Y12.1554
G01 X26.0772 Y12.1600
G01 X26.0679 Y12.1628
G01 X26.0581 Y12.1638
G01 X25.2244 Y12.1637
G01 X25.2160 Y12.1623
G01 X25.2078 Y12.1595
G01 X25.2003 Y12.1554
G01 X25.1936 Y12.1500
G01 X24.6077 Y11.5642
G01 X24.6044 Y11.5605
G01 X24.6009 Y11.5555
G01 X24.5979 Y11.5502
G01 X24.5953 Y11.5433
G01 X24.5936 Y11.5361
G01 X24.5931 Y11.5288
G01 X24.5931 Y10.8419
G01 X24.1030 Y10.3518
G01 X21.3659 Y10.3518
G01 X20.8799 Y10.8377
G01 X20.8732 Y10.8431
G01 X20.8645 Y10.8477
G01 X20.8552 Y10.8505
G01 X20.8454 Y10.8515
G01 X20.0154 Y10.8515
G01 X20.0069 Y10.8508
G01 X19.9986 Y10.8486
G01 X19.9940 Y10.8467
G01 X19.9887 Y10.8437
G01 X19.9846 Y10.8409
G01 X19.9800 Y10.8369
G01 X19.5371 Y10.3940
G01 X16.0886 Y10.3940
G01 X15.6026 Y10.8799
G01 X15.5948 Y10.8859
G01 X15.5872 Y10.8899
G01 X15.5779 Y10.8927
G01 X15.5681 Y10.8937
G01 X14.7381 Y10.8937
G01 X14.7296 Y10.8930
G01 X14.7213 Y10.8908
G01 X14.7167 Y10.8889
G01 X14.7114 Y10.8859
G01 X14.7064 Y10.8824
G01 X14.7027 Y10.8791
G01 X14.2176 Y10.3940
G01 X10.0686 Y10.3940
G01 X9.5835 Y10.8791
G01 X9.5798 Y10.8824
G01 X9.5748 Y10.8859
G01 X9.5695 Y10.8889
G01 X9.5649 Y10.8908
G01 X9.5566 Y10.8930
G01 X9.5481 Y10.8937
G01 X8.7156 Y10.8936
G01 X8.7071 Y10.8925
G01 X8.6978 Y10.8894
G01 X8.6893 Y10.8846
G01 X8.6827 Y10.8791
G01 X8.0977 Y10.2941
G01 X8.0915 Y10.2865
G01 X8.0874 Y10.2790
G01 X8.0856 Y10.2744
G01 X8.0841 Y10.2685
G01 X8.0831 Y10.2587
G01 X8.0831 Y9.4287
G01 X8.0838 Y9.4202
G01 X8.0856 Y9.4130
G01 X8.0890 Y9.4051
G01 X8.0929 Y9.3989
G01 X8.0977 Y9.3933
G01 X8.6827 Y8.8083
G01 X8.6903 Y8.8021
G01 X8.6990 Y8.7975
G01 X8.7083 Y8.7947
G01 X8.7181 Y8.7937
G01 X9.5481 Y8.7937
G01 X9.5566 Y8.7944
G01 X9.5649 Y8.7966
G01 X9.5695 Y8.7985
G01 X9.5748 Y8.8015
G01 X9.5798 Y8.8050
G01 X9.5835 Y8.8083
G01 X10.0686 Y9.2934
G01 X14.2176 Y9.2934
G01 X14.7027 Y8.8083
G01 X14.7064 Y8.8050
G01 X14.7114 Y8.8015
G01 X14.7167 Y8.7985
G01 X14.7213 Y8.7966
G01 X14.7296 Y8.7944
G01 X14.7381 Y8.7937
G01 X15.5681 Y8.7937
G01 X15.5779 Y8.7947
G01 X15.5872 Y8.7975
G01 X15.5959 Y8.8021
G01 X15.6026 Y8.8075
G01 X16.0886 Y9.2934
G01 X19.4527 Y9.2934
G01 X19.9809 Y8.7653
G01 X19.9887 Y8.7593
G01 X19.9974 Y8.7549
G01 X20.0069 Y8.7522
G01 X20.0154 Y8.7515
G01 X20.8454 Y8.7515
G01 X20.8539 Y8.7522
G01 X20.8622 Y8.7544
G01 X20.8679 Y8.7568
G01 X20.8721 Y8.7593
G01 X20.8771 Y8.7628
G01 X20.8808 Y8.7661
G01 X21.3659 Y9.2512
G01 X24.3309 Y9.2512
G01 X24.3848 Y9.2539
G01 X24.4370 Y9.2616
G01 X24.4906 Y9.2749
G01 X24.5437 Y9.2941
G01 X24.5903 Y9.3162
G01 X24.6345 Y9.3427
G01 X24.6809 Y9.3770
G01 X24.7200 Y9.4124
G01 X25.3713 Y10.0638
G01 X26.0581 Y10.0638
G01 X26.0630 Y10.0640
G01 X26.0691 Y10.0650
G01 X26.0784 Y10.0681
G01 X26.0869 Y10.0729
G01 X26.0935 Y10.0784
G01 X26.6785 Y10.6634
G01 X26.7209 Y10.6210
G01 X26.7303 Y10.6317
G01 X26.7384 Y10.6439
G01 X26.7444 Y10.6560
G01 X26.7469 Y10.6624
G01 X26.7493 Y10.6702
G01 X26.7522 Y10.6846
G01 X26.7531 Y10.6988
G01 X26.7530 Y11.5322
G01 X26.7522 Y11.5430
G01 X26.7506 Y11.5522
G01 X26.7478 Y11.5626
G01 X26.7440 Y11.5727
G01 X26.7392 Y11.5824
G01 X26.7341 Y11.5905
G01 X26.7286 Y11.5980
G01 X26.7214 Y11.6061
G01 X26.1354 Y12.1921
G01 X26.1273 Y12.1993
G01 X26.1186 Y12.2057
G01 X26.1093 Y12.2112
G01 X26.0995 Y12.2157
G01 X26.0893 Y12.2193
G01 X26.0788 Y12.2218
G01 X26.0681 Y12.2233
G01 X26.0588 Y12.2238
G01 X25.2207 Y12.2236
G01 X25.2112 Y12.2225
G01 X25.2021 Y12.2207
G01 X25.1929 Y12.2180
G01 X25.1842 Y12.2147
G01 X25.1756 Y12.2105
G01 X25.1676 Y12.2057
G01 X25.1598 Y12.2001
G01 X25.1528 Y12.1940
G01 X24.5653 Y11.6066
G01 X24.5568 Y11.5971
G01 X24.5498 Y11.5870
G01 X24.5428 Y11.5740
G01 X24.5398 Y11.5665
G01 X24.5376 Y11.5600
G01 X24.5344 Y11.5457
G01 X24.5336 Y11.5388
G01 X24.5331 Y11.5308
G01 X24.5331 Y10.8668
G01 X24.0781 Y10.4118
G01 X21.3907 Y10.4118
G01 X20.9198 Y10.8825
G01 X20.9125 Y10.8887
G01 X20.9036 Y10.8948
G01 X20.8942 Y10.9001
G01 X20.8857 Y10.9039
G01 X20.8754 Y10.9073
G01 X20.8661 Y10.9095
G01 X20.8554 Y10.9110
G01 X20.8454 Y10.9115
G01 X20.0147 Y10.9115
G01 X20.0054 Y10.9110
G01 X19.9973 Y10.9100
G01 X19.9894 Y10.9084
G01 X19.9802 Y10.9057
G01 X19.9690 Y10.9012
G01 X19.9582 Y10.8955
G01 X19.9483 Y10.8887
G01 X19.9390 Y10.8807
G01 X19.5123 Y10.4540
G01 X16.1134 Y10.4540
G01 X15.6425 Y10.9247
G01 X15.6342 Y10.9316
G01 X15.6263 Y10.9370
G01 X15.6169 Y10.9423
G01 X15.6084 Y10.9461
G01 X15.5981 Y10.9495
G01 X15.5888 Y10.9517
G01 X15.5781 Y10.9532
G01 X15.5681 Y10.9537
G01 X14.7374 Y10.9537
G01 X14.7281 Y10.9532
G01 X14.7186 Y10.9520
G01 X14.7095 Y10.9499
G01 X14.7004 Y10.9470
G01 X14.6904 Y10.9428
G01 X14.6799 Y10.9370
G01 X14.6698 Y10.9300
G01 X14.6617 Y10.9229
G01 X14.1928 Y10.4540
G01 X10.0934 Y10.4540
G01 X9.6245 Y10.9229
G01 X9.6152 Y10.9309
G01 X9.6063 Y10.9370
G01 X9.5958 Y10.9428
G01 X9.5858 Y10.9470
G01 X9.5767 Y10.9499
G01 X9.5676 Y10.9520
G01 X9.5581 Y10.9532
G01 X9.5488 Y10.9537
G01 X8.7107 Y10.9535
G01 X8.7012 Y10.9524
G01 X8.6921 Y10.9506
G01 X8.6829 Y10.9479
G01 X8.6742 Y10.9446
G01 X8.6656 Y10.9404
G01 X8.6564 Y10.9347
G01 X8.6489 Y10.9292
G01 X8.6417 Y10.9229
G01 X8.0548 Y10.3360
G01 X8.0476 Y10.3279
G01 X8.0421 Y10.3204
G01 X8.0370 Y10.3123
G01 X8.0328 Y10.3039
G01 X8.0284 Y10.2925
G01 X8.0256 Y10.2821
G01 X8.0238 Y10.2714
G01 X8.0231 Y10.2594
G01 X8.0231 Y9.4287
G01 X8.0235 Y9.4199
G01 X8.0246 Y9.4106
G01 X8.0262 Y9.4027
G01 X8.0284 Y9.3949
G01 X8.0312 Y9.3873
G01 X8.0345 Y9.3799
G01 X8.0384 Y9.3728
G01 X8.0427 Y9.3660
G01 X8.0476 Y9.3595
G01 X8.0539 Y9.3523
G01 X8.6408 Y8.7654
G01 X8.6489 Y8.7582
G01 X8.6576 Y8.7518
G01 X8.6656 Y8.7470
G01 X8.6753 Y8.7424
G01 X8.6855 Y8.7387
G01 X8.6959 Y8.7360
G01 X8.7054 Y8.7344
G01 X8.7161 Y8.7337
G01 X9.5488 Y8.7337
G01 X9.5581 Y8.7342
G01 X9.5676 Y8.7354
G01 X9.5767 Y8.7375
G01 X9.5858 Y8.7404
G01 X9.5958 Y8.7446
G01 X9.6063 Y8.7504
G01 X9.6164 Y8.7574
G01 X9.6245 Y8.7645
G01 X10.0934 Y9.2334
G01 X14.1928 Y9.2334
G01 X14.6617 Y8.7645
G01 X14.6710 Y8.7565
G01 X14.6799 Y8.7504
G01 X14.6904 Y8.7446
G01 X14.7004 Y8.7404
G01 X14.7095 Y8.7375
G01 X14.7186 Y8.7354
G01 X14.7281 Y8.7342
G01 X14.7374 Y8.7337
G01 X15.5681 Y8.7337
G01 X15.5781 Y8.7342
G01 X15.5888 Y8.7357
G01 X15.5981 Y8.7379
G01 X15.6084 Y8.7413
G01 X15.6169 Y8.7451
G01 X15.6263 Y8.7504
G01 X15.6342 Y8.7558
G01 X15.6425 Y8.7627
G01 X16.1134 Y9.2334
G01 X19.4279 Y9.2334
G01 X19.9410 Y8.7205
G01 X19.9493 Y8.7136
G01 X19.9572 Y8.7082
G01 X19.9666 Y8.7029
G01 X19.9751 Y8.6991
G01 X19.9842 Y8.6960
G01 X19.9947 Y8.6935
G01 X20.0054 Y8.6920
G01 X20.0154 Y8.6915
G01 X20.8461 Y8.6915
G01 X20.8554 Y8.6920
G01 X20.8649 Y8.6932
G01 X20.8740 Y8.6953
G01 X20.8831 Y8.6982
G01 X20.8942 Y8.7029
G01 X20.9036 Y8.7082
G01 X20.9125 Y8.7143
G01 X20.9218 Y8.7223
G01 X21.3907 Y9.1912
G01 X24.3309 Y9.1912
G01 X24.3900 Y9.1941
G01 X24.4466 Y9.2024
G01 X24.4552 Y9.2042
G01 X24.5088 Y9.2177
G01 X24.5601 Y9.2360
G01 X24.5694 Y9.2399
G01 X24.6179 Y9.2630
G01 X24.6654 Y9.2912
G01 X24.6744 Y9.2972
G01 X24.7196 Y9.3310
G01 X24.7624 Y9.3700
G01 X25.3962 Y10.0038
G01 X26.0601 Y10.0038
G01 X26.0708 Y10.0045
G01 X26.0829 Y10.0066
G01 X26.0933 Y10.0096
G01 X26.1045 Y10.0141
G01 X26.1130 Y10.0185
G01 X26.1208 Y10.0234
G01 X26.1284 Y10.0292
G01 X26.1354 Y10.0355
G01 X26.7209 Y10.6210
G01 X26.7633 Y10.5786
G01 X26.7713 Y10.5872
G01 X26.7788 Y10.5964
G01 X26.7853 Y10.6056
G01 X26.7914 Y10.6157
G01 X26.7965 Y10.6255
G01 X26.8012 Y10.6362
G01 X26.8050 Y10.6469
G01 X26.8082 Y10.6582
G01 X26.8103 Y10.6683
G01 X26.8119 Y10.6787
G01 X26.8128 Y10.6890
G01 X26.8131 Y10.6984
G01 X26.8129 Y11.5364
G01 X26.8116 Y11.5511
G01 X26.8088 Y11.5668
G01 X26.8047 Y11.5814
G01 X26.7991 Y11.5963
G01 X26.7923 Y11.6102
G01 X26.7840 Y11.6239
G01 X26.7750 Y11.6361
G01 X26.7643 Y11.6480
G01 X26.1764 Y12.2359
G01 X26.1638 Y12.2469
G01 X26.1513 Y12.2560
G01 X26.1369 Y12.2644
G01 X26.1225 Y12.2711
G01 X26.1082 Y12.2763
G01 X26.0920 Y12.2804
G01 X26.0762 Y12.2828
G01 X26.0608 Y12.2838
G01 X25.2281 Y12.2838
G01 X25.2171 Y12.2834
G01 X25.2024 Y12.2818
G01 X25.1882 Y12.2791
G01 X25.1741 Y12.2750
G01 X25.1606 Y12.2698
G01 X25.1486 Y12.2641
G01 X25.1359 Y12.2566
G01 X25.1241 Y12.2483
G01 X25.1128 Y12.2388
G01 X24.5226 Y11.6487
G01 X24.5108 Y11.6355
G01 X24.5003 Y11.6210
G01 X24.4945 Y11.6113
G01 X24.4891 Y11.6008
G01 X24.4848 Y11.5907
G01 X24.4809 Y11.5796
G01 X24.4778 Y11.5687
G01 X24.4755 Y11.5571
G01 X24.4740 Y11.5462
G01 X24.4732 Y11.5357
G01 X24.4731 Y10.8916
G01 X24.0533 Y10.4718
G01 X21.4156 Y10.4718
G01 X20.9656 Y10.9217
G01 X20.9575 Y10.9293
G01 X20.9461 Y10.9385
G01 X20.9334 Y10.9469
G01 X20.9194 Y10.9545
G01 X20.9052 Y10.9606
G01 X20.8900 Y10.9655
G01 X20.8759 Y10.9687
G01 X20.8606 Y10.9708
G01 X20.8458 Y10.9715
G01 X20.0139 Y10.9715
G01 X20.0002 Y10.9708
G01 X19.9871 Y10.9691
G01 X19.9748 Y10.9666
G01 X19.9614 Y10.9627
G01 X19.9528 Y10.9596
G01 X19.9441 Y10.9558
G01 X19.9286 Y10.9477
G01 X19.9203 Y10.9424
G01 X19.9130 Y10.9372
G01 X19.9055 Y10.9312
G01 X19.8987 Y10.9251
G01 X19.4874 Y10.5140
G01 X16.1383 Y10.5140
G01 X15.6883 Y10.9639
G01 X15.6802 Y10.9715
G01 X15.6688 Y10.9807
G01 X15.6561 Y10.9891
G01 X15.6421 Y10.9967
G01 X15.6279 Y11.0028
G01 X15.6127 Y11.0077
G01 X15.5986 Y11.0109
G01 X15.5833 Y11.0130
G01 X15.5681 Y11.0137
G01 X14.7366 Y11.0137
G01 X14.7222 Y11.0129
G01 X14.7083 Y11.0111
G01 X14.6942 Y11.0079
G01 X14.6815 Y11.0040
G01 X14.6648 Y10.9971
G01 X14.6567 Y10.9929
G01 X14.6484 Y10.9881
G01 X14.6341 Y10.9782
G01 X14.6203 Y10.9663
G01 X14.1679 Y10.5140
G01 X10.1183 Y10.5140
G01 X9.6659 Y10.9663
G01 X9.6521 Y10.9782
G01 X9.6448 Y10.9835
G01 X9.6368 Y10.9887
G01 X9.6214 Y10.9971
G01 X9.6047 Y11.0040
G01 X9.5920 Y11.0079
G01 X9.5779 Y11.0111
G01 X9.5640 Y11.0129
G01 X9.5496 Y11.0137
G01 X8.7181 Y11.0137
G01 X8.7071 Y11.0133
G01 X8.6924 Y11.0117
G01 X8.6782 Y11.0090
G01 X8.6641 Y11.0049
G01 X8.6506 Y10.9997
G01 X8.6373 Y10.9933
G01 X8.6249 Y10.9859
G01 X8.6129 Y10.9773
G01 X8.6020 Y10.9678
G01 X8.0119 Y10.3779
G01 X8.0022 Y10.3671
G01 X7.9933 Y10.3554
G01 X7.9856 Y10.3431
G01 X7.9791 Y10.3307
G01 X7.9755 Y10.3224
G01 X7.9722 Y10.3134
G01 X7.9674 Y10.2967
G01 X7.9643 Y10.2788
G01 X7.9631 Y10.2614
G01 X7.9631 Y9.4287
G01 X7.9635 Y9.4177
G01 X7.9648 Y9.4045
G01 X7.9676 Y9.3900
G01 X7.9715 Y9.3761
G01 X7.9766 Y9.3623
G01 X7.9828 Y9.3492
G01 X7.9903 Y9.3365
G01 X7.9986 Y9.3247
G01 X8.0076 Y9.3140
G01 X8.5979 Y8.7235
G01 X8.6091 Y8.7132
G01 X8.6214 Y8.7039
G01 X8.6350 Y8.6954
G01 X8.6485 Y8.6886
G01 X8.6622 Y8.6831
G01 X8.6775 Y8.6786
G01 X8.6924 Y8.6757
G01 X8.7083 Y8.6740
G01 X8.7181 Y8.6737
G01 X9.5496 Y8.6737
G01 X9.5640 Y8.6745
G01 X9.5779 Y8.6763
G01 X9.5920 Y8.6795
G01 X9.6047 Y8.6834
G01 X9.6214 Y8.6903
G01 X9.6295 Y8.6945
G01 X9.6378 Y8.6993
G01 X9.6521 Y8.7092
G01 X9.6659 Y8.7211
G01 X10.1183 Y9.1734
G01 X14.1679 Y9.1734
G01 X14.6203 Y8.7211
G01 X14.6341 Y8.7092
G01 X14.6414 Y8.7039
G01 X14.6494 Y8.6987
G01 X14.6648 Y8.6903
G01 X14.6815 Y8.6834
G01 X14.6942 Y8.6795
G01 X14.7083 Y8.6763
G01 X14.7222 Y8.6745
G01 X14.7366 Y8.6737
G01 X15.5681 Y8.6737
G01 X15.5833 Y8.6744
G01 X15.5986 Y8.6765
G01 X15.6141 Y8.6801
G01 X15.6279 Y8.6846
G01 X15.6414 Y8.6903
G01 X15.6549 Y8.6975
G01 X15.6682 Y8.7063
G01 X15.6802 Y8.7159
G01 X15.6883 Y8.7235
G01 X16.1383 Y9.1734
G01 X19.4030 Y9.1734
G01 X19.8976 Y8.6789
G01 X19.9114 Y8.6670
G01 X19.9251 Y8.6575
G01 X19.9403 Y8.6490
G01 X19.9556 Y8.6424
G01 X19.9708 Y8.6375
G01 X19.9849 Y8.6343
G01 X19.9995 Y8.6323
G01 X20.0139 Y8.6315
G01 X20.8454 Y8.6315
G01 X20.8564 Y8.6319
G01 X20.8696 Y8.6332
G01 X20.8841 Y8.6360
G01 X20.8980 Y8.6399
G01 X20.9111 Y8.6447
G01 X20.9242 Y8.6509
G01 X20.9357 Y8.6575
G01 X20.9473 Y8.6654
G01 X20.9585 Y8.6746
G01 X20.9656 Y8.6813
G01 X21.4156 Y9.1312
G01 X24.3324 Y9.1313
G01 X24.3959 Y9.1344
G01 X24.4538 Y9.1428
G01 X24.4694 Y9.1459
G01 X24.5185 Y9.1582
G01 X24.5287 Y9.1611
G01 X24.5881 Y9.1826
G01 X24.6394 Y9.2066
G01 X24.6482 Y9.2111
G01 X24.7039 Y9.2446
G01 X24.7498 Y9.2785
G01 X24.7604 Y9.2871
G01 X24.8049 Y9.3276
G01 X25.4210 Y9.9438
G01 X26.0637 Y9.9439
G01 X26.0755 Y9.9447
G01 X26.0864 Y9.9462
G01 X26.0980 Y9.9485
G01 X26.1089 Y9.9516
G01 X26.1200 Y9.9555
G01 X26.1301 Y9.9598
G01 X26.1395 Y9.9646
G01 X26.1497 Y9.9706
G01 X26.1572 Y9.9757
G01 X26.1648 Y9.9815
G01 X26.1780 Y9.9933
G01 X26.7633 Y10.5786
G00 Z2.0000
G00 X29.2185 Y10.6634
G01 F60.00
G01 Z0.0000
G01 F120.00
G01 X29.2247 Y10.6710
G01 X29.2293 Y10.6797
G01 X29.2321 Y10.6890
G01 X29.2331 Y10.6988
G01 X29.2331 Y11.5288
G01 X29.2321 Y11.5386
G01 X29.2293 Y11.5479
G01 X29.2247 Y11.5566
G01 X29.2185 Y11.5642
G01 X28.6326 Y12.1500
G01 X28.6248 Y12.1560
G01 X28.6161 Y12.1604
G01 X28.6066 Y12.1631
G01 X28.5981 Y12.1638
G01 X27.7681 Y12.1638
G01 X27.7583 Y12.1628
G01 X27.7490 Y12.1600
G01 X27.7403 Y12.1554
G01 X27.7327 Y12.1492
G01 X27.1469 Y11.5633
G01 X27.1415 Y11.5566
G01 X27.1369 Y11.5479
G01 X27.1341 Y11.5386
G01 X27.1331 Y11.5288
G01 X27.1331 Y10.6976
G01 X27.1341 Y10.6890
G01 X27.1369 Y10.6797
G01 X27.1409 Y10.6721
G01 X27.1469 Y10.6643
G01 X27.7336 Y10.0776
G01 X27.7414 Y10.0716
G01 X27.7501 Y10.0672
G01 X27.7596 Y10.0645
G01 X27.7681 Y10.0638
G01 X28.5981 Y10.0638
G01 X28.6066 Y10.0645
G01 X28.6161 Y10.0672
G01 X28.6248 Y10.0716
G01 X28.6298 Y10.0751
G01 X28.6335 Y10.0784
G01 X29.2185 Y10.6634
G01 X29.2609 Y10.6210
G01 X29.2686 Y10.6296
G01 X29.2750 Y10.6383
G01 X29.2805 Y10.6476
G01 X29.2855 Y10.6585
G01 X29.2889 Y10.6688
G01 X29.2911 Y10.6781
G01 X29.2925 Y10.6873
G01 X29.2931 Y10.6981
G01 X29.2931 Y11.5308
G01 X29.2924 Y11.5415
G01 X29.2908 Y11.5510
G01 X29.2881 Y11.5614
G01 X29.2850 Y11.5702
G01 X29.2805 Y11.5800
G01 X29.2750 Y11.5893
G01 X29.2694 Y11.5971
G01 X29.2623 Y11.6052
G01 X28.6754 Y12.1921
G01 X28.6673 Y12.1993
G01 X28.6586 Y12.2057
G01 X28.6493 Y12.2112
G01 X28.6395 Y12.2157
G01 X28.6293 Y12.2193
G01 X28.6188 Y12.2218
G01 X28.6081 Y12.2233
G01 X28.5988 Y12.2238
G01 X27.7681 Y12.2238
G01 X27.7581 Y12.2233
G01 X27.7474 Y12.2218
G01 X27.7381 Y12.2196
G01 X27.7278 Y12.2162
G01 X27.7180 Y12.2117
G01 X27.7086 Y12.2063
G01 X27.6998 Y12.2001
G01 X27.6928 Y12.1940
G01 X27.1048 Y11.6061
G01 X27.0985 Y11.5991
G01 X27.0921 Y11.5905
G01 X27.0870 Y11.5824
G01 X27.0822 Y11.5727
G01 X27.0784 Y11.5626
G01 X27.0754 Y11.5510
G01 X27.0737 Y11.5403
G01 X27.0731 Y11.5288
G01 X27.0731 Y10.6981
G01 X27.0735 Y10.6900
G01 X27.0746 Y10.6807
G01 X27.0766 Y10.6714
G01 X27.0793 Y10.6624
G01 X27.0834 Y10.6524
G01 X27.0891 Y10.6416
G01 X27.0959 Y10.6317
G01 X27.1039 Y10.6224
G01 X27.6917 Y10.0346
G01 X27.6989 Y10.0283
G01 X27.7064 Y10.0228
G01 X27.7145 Y10.0177
G01 X27.7242 Y10.0129
G01 X27.7343 Y10.0091
G01 X27.7433 Y10.0066
G01 X27.7527 Y10.0049
G01 X27.7634 Y10.0039
G01 X28.5988 Y10.0038
G01 X28.6081 Y10.0043
G01 X28.6176 Y10.0055
G01 X28.6281 Y10.0080
G01 X28.6370 Y10.0109
G01 X28.6482 Y10.0159
G01 X28.6576 Y10.0213
G01 X28.6673 Y10.0283
G01 X28.6754 Y10.0355
G01 X29.2609 Y10.6210
G01 X29.3033 Y10.5786
G01 X29.3041 Y10.5794
G01 X29.3150 Y10.5915
G01 X29.3240 Y10.6037
G01 X29.3323 Y10.6174
G01 X29.3391 Y10.6313
G01 X29.3447 Y10.6462
G01 X29.3488 Y10.6608
G01 X29.3516 Y10.6765
G01 X29.3530 Y10.6919
G01 X29.3531 Y11.5303
G01 X29.3523 Y11.5447
G01 X29.3503 Y11.5593
G01 X29.3471 Y11.5734
G01 X29.3422 Y11.5886
G01 X29.3353 Y11.6046
G01 X29.3306 Y11.6132
G01 X29.3259 Y11.6210
G01 X29.3154 Y11.6355
G01 X29.3033 Y11.6490
G01 X28.7164 Y12.2359
G01 X28.7048 Y12.2461
G01 X28.6919 Y12.2556
G01 X28.6789 Y12.2634
G01 X28.6645 Y12.2703
G01 X28.6489 Y12.2760
G01 X28.6320 Y12.2804
G01 X28.6155 Y12.2829
G01 X28.5981 Y12.2838
G01 X27.7654 Y12.2838
G01 X27.7500 Y12.2828
G01 X27.7342 Y12.2804
G01 X27.7195 Y12.2767
G01 X27.7037 Y12.2711
G01 X27.6886 Y12.2641
G01 X27.6743 Y12.2556
G01 X27.6608 Y12.2457
G01 X27.6479 Y12.2340
G01 X27.0610 Y11.6471
G01 X27.0508 Y11.6355
G01 X27.0413 Y11.6226
G01 X27.0335 Y11.6096
G01 X27.0266 Y11.5952
G01 X27.0209 Y11.5796
G01 X27.0165 Y11.5627
G01 X27.0140 Y11.5462
G01 X27.0131 Y11.5288
G01 X27.0131 Y10.6961
G01 X27.0141 Y10.6807
G01 X27.0165 Y10.6649
G01 X27.0206 Y10.6487
G01 X27.0258 Y10.6344
G01 X27.0325 Y10.6200
G01 X27.0409 Y10.6056
G01 X27.0500 Y10.5931
G01 X27.0610 Y10.5805
G01 X27.6479 Y9.9936
G01 X27.6608 Y9.9819
G01 X27.6743 Y9.9720
G01 X27.6886 Y9.9635
G01 X27.7037 Y9.9565
G01 X27.7180 Y9.9513
G01 X27.7342 Y9.9472
G01 X27.7500 Y9.9448
G01 X27.7654 Y9.9438
G01 X28.6037 Y9.9439
G01 X28.6182 Y9.9450
G01 X28.6339 Y9.9476
G01 X28.6482 Y9.9513
G01 X28.6625 Y9.9565
G01 X28.6758 Y9.9626
G01 X28.6897 Y9.9706
G01 X28.7015 Y9.9789
G01 X28.7128 Y9.9883
G01 X29.3033 Y10.5786
G01 X29.4016 Y10.6270
G01 X29.4064 Y10.6436
G01 X29.4099 Y10.6606
G01 X29.4122 Y10.6781
G01 X29.4131 Y10.6954
G01 X29.4131 Y11.5288
G01 X29.4124 Y11.5468
G01 X29.4103 Y11.5647
G01 X29.4066 Y11.5829
G01 X29.4016 Y11.6006
G01 X29.4145 Y11.5981
G01 X29.4268 Y11.5963
G01 X29.4396 Y11.5952
G01 X29.4524 Y11.5948
G01 X29.4655 Y11.5951
G01 X29.4791 Y11.5963
G01 X29.4917 Y11.5981
G01 X29.5046 Y11.6006
G01 X29.4998 Y11.5840
G01 X29.4963 Y11.5670
G01 X29.4940 Y11.5495
G01 X29.4931 Y11.5322
G01 X29.4931 Y10.6988
G01 X29.4938 Y10.6808
G01 X29.4959 Y10.6629
G01 X29.4996 Y10.6447
G01 X29.5046 Y10.6270
G01 X29.4917 Y10.6295
G01 X29.4794 Y10.6313
G01 X29.4666 Y10.6324
G01 X29.4538 Y10.6328
G01 X29.4407 Y10.6325
G01 X29.4271 Y10.6313
G01 X29.4145 Y10.6295
G01 X29.4016 Y10.6270
G00 Z2.0000
G00 X31.7585 Y10.6634
G01 F60.00
G01 Z0.0000
G01 F120.00
G01 X31.7647 Y10.6710
G01 X31.7693 Y10.6797
G01 X31.7721 Y10.6890
G01 X31.7731 Y10.6988
G01 X31.7731 Y11.5288
G01 X31.7721 Y11.5386
G01 X31.7693 Y11.5479
G01 X31.7647 Y11.5566
G01 X31.7585 Y11.5642
G01 X31.1726 Y12.1500
G01 X31.1648 Y12.1560
G01 X31.1561 Y12.1604
G01 X31.1466 Y12.1631
G01 X31.1381 Y12.1638
G01 X30.3081 Y12.1638
G01 X30.2983 Y12.1628
G01 X30.2890 Y12.1600
G01 X30.2803 Y12.1554
G01 X30.2727 Y12.1492
G01 X29.6869 Y11.5633
G01 X29.6815 Y11.5566
G01 X29.6769 Y11.5479
G01 X29.6741 Y11.5386
G01 X29.6731 Y11.5288
G01 X29.6731 Y10.6976
G01 X29.6741 Y10.6890
G01 X29.6769 Y10.6797
G01 X29.6809 Y10.6721
G01 X29.6869 Y10.6643
G01 X30.2736 Y10.0776
G01 X30.2814 Y10.0716
G01 X30.2901 Y10.0672
G01 X30.2996 Y10.0645
G01 X30.3081 Y10.0638
G01 X31.1381 Y10.0638
G01 X31.1466 Y10.0645
G01 X31.1561 Y10.0672
G01 X31.1648 Y10.0716
G01 X31.1698 Y10.0751
G01 X31.1735 Y10.0784
G01 X31.7585 Y10.6634
G01 X31.8009 Y10.6210
G01 X31.8086 Y10.6296
G01 X31.8150 Y10.6383
G01 X31.8205 Y10.6476
G01 X31.8255 Y10.6585
G01 X31.8289 Y10.6688
G01 X31.8311 Y10.6781
G01 X31.8325 Y10.6873
G01 X31.8331 Y10.6981
G01 X31.8331 Y11.5308
G01 X31.8324 Y11.5415
G01 X31.8308 Y11.5510
G01 X31.8281 Y11.5614
G01 X31.8244 Y11.5716
G01 X31.8205 Y11.5800
G01 X31.8150 Y11.5893
G01 X31.8086 Y11.5980
G01 X31.8023 Y11.6052
G01 X31.2154 Y12.1921
G01 X31.2073 Y12.1993
G01 X31.1986 Y12.2057
G01 X31.1893 Y12.2112
G01 X31.1795 Y12.2157
G01 X31.1693 Y12.2193
G01 X31.1588 Y12.2218
G01 X31.1481 Y12.2233
G01 X31.1388 Y12.2238
G01 X30.3081 Y12.2238
G01 X30.2981 Y12.2233
G01 X30.2874 Y12.2218
G01 X30.2781 Y12.2196
G01 X30.2678 Y12.2162
G01 X30.2580 Y12.2117
G01 X30.2486 Y12.2063
G01 X30.2398 Y12.2001
G01 X30.2328 Y12.1940
G01 X29.6448 Y11.6061
G01 X29.6385 Y11.5991
G01 X29.6321 Y11.5905
G01 X29.6270 Y11.5824
G01 X29.6222 Y11.5727
G01 X29.6184 Y11.5626
G01 X29.6154 Y11.5510
G01 X29.6137 Y11.5403
G01 X29.6131 Y11.5288
G01 X29.6131 Y10.6981
G01 X29.6135 Y10.6900
G01 X29.6146 Y10.6807
G01 X29.6166 Y10.6714
G01 X29.6193 Y10.6624
G01 X29.6234 Y10.6524
G01 X29.6291 Y10.6416
G01 X29.6359 Y10.6317
G01 X29.6439 Y10.6224
G01 X30.2317 Y10.0346
G01 X30.2389 Y10.0283
G01 X30.2464 Y10.0228
G01 X30.2545 Y10.0177
G01 X30.2642 Y10.0129
G01 X30.2743 Y10.0091
G01 X30.2833 Y10.0066
G01 X30.2927 Y10.0049
G01 X30.3034 Y10.0039
G01 X31.1388 Y10.0038
G01 X31.1481 Y10.0043
G01 X31.1576 Y10.0055
G01 X31.1681 Y10.0080
G01 X31.1770 Y10.0109
G01 X31.1882 Y10.0159
G01 X31.1976 Y10.0213
G01 X31.2073 Y10.0283
G01 X31.2154 Y10.0355
G01 X31.8009 Y10.6210
G01 X31.8433 Y10.5786
G01 X31.8441 Y10.5794
G01 X31.8550 Y10.5915
G01 X31.8640 Y10.6037
G01 X31.8723 Y10.6174
G01 X31.8791 Y10.6313
G01 X31.8847 Y10.6462
G01 X31.8888 Y10.6608
G01 X31.8916 Y10.6765
G01 X31.8930 Y10.6919
G01 X31.8931 Y11.5303
G01 X31.8923 Y11.5447
G01 X31.8903 Y11.5593
G01 X31.8871 Y11.5734
G01 X31.8822 Y11.5886
G01 X31.8788 Y11.5970
G01 X31.8746 Y11.6059
G01 X31.8659 Y11.6210
G01 X31.8554 Y11.6355
G01 X31.8433 Y11.6490
G01 X31.2564 Y12.2359
G01 X31.2448 Y12.2461
G01 X31.2319 Y12.2556
G01 X31.2189 Y12.2634
G01 X31.2045 Y12.2703
G01 X31.1889 Y12.2760
G01 X31.1720 Y12.2804
G01 X31.1555 Y12.2829
G01 X31.1381 Y12.2838
G01 X30.3054 Y12.2838
G01 X30.2900 Y12.2828
G01 X30.2742 Y12.2804
G01 X30.2595 Y12.2767
G01 X30.2437 Y12.2711
G01 X30.2286 Y12.2641
G01 X30.2143 Y12.2556
G01 X30.2008 Y12.2457
G01 X30.1879 Y12.2340
G01 X29.6010 Y11.6471
G01 X29.5908 Y11.6355
G01 X29.5813 Y11.6226
G01 X29.5735 Y11.6096
G01 X29.5666 Y11.5952
G01 X29.5609 Y11.5796
G01 X29.5565 Y11.5627
G01 X29.5540 Y11.5462
G01 X29.5531 Y11.5288
G01 X29.5531 Y10.6961
G01 X29.5541 Y10.6807
G01 X29.5565 Y10.6649
G01 X29.5606 Y10.6487
G01 X29.5658 Y10.6344
G01 X29.5725 Y10.6200
G01 X29.5809 Y10.6056
G01 X29.5900 Y10.5931
G01 X29.6010 Y10.5805
G01 X30.1879 Y9.9936
G01 X30.2008 Y9.9819
G01 X30.2143 Y9.9720
G01 X30.2286 Y9.9635
G01 X30.2437 Y9.9565
G01 X30.2580 Y9.9513
G01 X30.2742 Y9.9472
G01 X30.2900 Y9.9448
G01 X30.3054 Y9.9438
G01 X31.1437 Y9.9439
G01 X31.1582 Y9.9450
G01 X31.1739 Y9.9476
G01 X31.1882 Y9.9513
G01 X31.2025 Y9.9565
G01 X31.2158 Y9.9626
G01 X31.2297 Y9.9706
G01 X31.2415 Y9.9789
G01 X31.2528 Y9.9883
G01 X31.8433 Y10.5786
G01 X31.9416 Y10.6269
G01 X31.9466 Y10.6447
G01 X31.9503 Y10.6629
G01 X31.9524 Y10.6808
G01 X31.9531 Y10.6988
G01 X31.9531 Y11.5322
G01 X31.9522 Y11.5495
G01 X31.9499 Y11.5670
G01 X31.9465 Y11.5836
G01 X31.9416 Y11.6006
G01 X31.9546 Y11.5980
G01 X31.9668 Y11.5963
G01 X31.9797 Y11.5951
G01 X31.9924 Y11.5948
G01 X32.0055 Y11.5951
G01 X32.0191 Y11.5962
G01 X32.0317 Y11.5980
G01 X32.0446 Y11.6006
G01 X32.0396 Y11.5828
G01 X32.0359 Y11.5646
G01 X32.0338 Y11.5467
G01 X32.0331 Y11.5287
G01 X32.0331 Y10.6953
G01 X32.0340 Y10.6780
G01 X32.0363 Y10.6605
G01 X32.0397 Y10.6439
G01 X32.0446 Y10.6269
G01 X32.0316 Y10.6295
G01 X32.0194 Y10.6312
G01 X32.0065 Y10.6324
G01 X31.9938 Y10.6327
G01 X31.9807 Y10.6324
G01 X31.9671 Y10.6313
G01 X31.9545 Y10.6295
G01 X31.9416 Y10.6269
G00 Z2.0000
G00 X33.8297 Y9.7700
G01 F60.00
G01 Z0.0000
G01 F120.00
G01 X33.8297 Y10.1946
G01 X34.1822 Y10.5471
G01 X34.6068 Y10.5471
G01 X33.8297 Y9.7700
G01 X33.8897 Y9.9149
G01 X33.8897 Y10.1697
G01 X34.2071 Y10.4871
G01 X34.4619 Y10.4871
G01 X33.8897 Y9.9149
G01 X33.9497 Y10.0597
G01 X33.9497 Y10.1449
G01 X34.2319 Y10.4271
G01 X34.3171 Y10.4271
G01 X33.9497 Y10.0597
G00 Z2.0000
G00 X33.9497 Y12.1677
G01 F60.00
G01 Z0.0000
G01 F120.00
G01 X33.9497 Y12.0825
G01 X34.2318 Y11.8004
G01 X34.3170 Y11.8004
G01 X33.9497 Y12.1677
G01 X33.8897 Y12.3125
G01 X33.8897 Y12.0577
G01 X34.2070 Y11.7404
G01 X34.4618 Y11.7404
G01 X33.8897 Y12.3125
G01 X33.8297 Y12.4574
G01 X33.8297 Y12.0328
G01 X34.1821 Y11.6804
G01 X34.6067 Y11.6804
G01 X33.8297 Y12.4574
G00 Z2.0000
G00 X33.8797 Y20.0649
G01 F60.00
G01 Z0.0000
G01 F120.00
G01 X33.8797 Y20.3197
G01 X34.2171 Y20.6571
G01 X34.4719 Y20.6571
G01 X33.8797 Y20.0649
G01 X33.9397 Y20.2097
G01 X33.9397 Y20.2949
G01 X34.2419 Y20.5971
G01 X34.3271 Y20.5971
G01 X33.9397 Y20.2097
G01 X34.6131 Y20.7171
G01 X34.6131 Y20.7134
G01 X33.8234 Y19.9237
G01 X33.8197 Y19.9237
G01 X33.8197 Y20.3446
G01 X34.1922 Y20.7171
G01 X34.6131 Y20.7171
G00 Z2.0000
G00 X33.9397 Y22.3377
G01 F60.00
G01 Z0.0000
G01 F120.00
G01 X34.3270 Y21.9504
G01 X34.2418 Y21.9504
G01 X33.9397 Y22.2525
G01 X33.9397 Y22.3377
G01 X33.8797 Y22.4825
G01 X34.4718 Y21.8904
G01 X34.2170 Y21.8904
G01 X33.8797 Y22.2277
G01 X33.8797 Y22.4825
G01 X33.8197 Y22.6237
G01 X33.8234 Y22.6237
G01 X34.6131 Y21.8340
G01 X34.6131 Y21.8304
G01 X34.1921 Y21.8304
G01 X33.8197 Y22.2028
G01 X33.8197 Y22.6237
G00 Z2.0000
G00 X31.9416 Y20.7869
G01 F60.00
G01 Z0.0000
G01 F120.00
G01 X31.9464 Y20.8035
G01 X31.9499 Y20.8205
G01 X31.9522 Y20.8380
G01 X31.9531 Y20.8553
G01 X31.9531 Y21.6887
G01 X31.9524 Y21.7067
G01 X31.9503 Y21.7246
G01 X31.9466 Y21.7428
G01 X31.9416 Y21.7605
G01 X31.9545 Y21.7580
G01 X31.9668 Y21.7562
G01 X31.9796 Y21.7551
G01 X31.9924 Y21.7547
G01 X32.0055 Y21.7550
G01 X32.0191 Y21.7562
G01 X32.0317 Y21.7580
G01 X32.0446 Y21.7605
G01 X32.0398 Y21.7439
G01 X32.0363 Y21.7269
G01 X32.0340 Y21.7094
G01 X32.0331 Y21.6921
G01 X32.0331 Y20.8587
G01 X32.0338 Y20.8407
G01 X32.0359 Y20.8228
G01 X32.0396 Y20.8046
G01 X32.0446 Y20.7869
G01 X32.0317 Y20.7894
G01 X32.0194 Y20.7912
G01 X32.0066 Y20.7923
G01 X31.9938 Y20.7927
G01 X31.9807 Y20.7924
G01 X31.9671 Y20.7912
G01 X31.9545 Y20.7894
G01 X31.9416 Y20.7869
G00 Z2.0000
G00 X29.5046 Y21.7605
G01 F60.00
G01 Z0.0000
G01 F120.00
G01 X29.4998 Y21.7439
G01 X29.4963 Y21.7269
G01 X29.4940 Y21.7094
G01 X29.4931 Y21.6921
G01 X29.4931 Y20.9349
G01 X29.4131 Y20.8549
G01 X29.4131 Y21.6921
G01 X29.4122 Y21.7094
G01 X29.4099 Y21.7269
G01 X29.4064 Y21.7439
G01 X29.4016 Y21.7605
G01 X29.4145 Y21.7580
G01 X29.4271 Y21.7562
G01 X29.4407 Y21.7550
G01 X29.4538 Y21.7547
G01 X29.4666 Y21.7551
G01 X29.4794 Y21.7562
G01 X29.4917 Y21.7580
G01 X29.5046 Y21.7605
G00 Z2.0000
G00 X28.6019 Y20.0437
G01 F60.00
G01 Z0.0000
G01 F120.00
G01 X28.4209 Y19.8627
G01 X28.4212 Y19.8748
G01 X28.4208 Y19.8872
G01 X28.4196 Y19.9000
G01 X28.4179 Y19.9123
G01 X28.4154 Y19.9248
G01 X28.4123 Y19.9368
G01 X28.4084 Y19.9491
G01 X28.4039 Y19.9610
G01 X28.3988 Y19.9727
G01 X28.3931 Y19.9837
G01 X28.3866 Y19.9949
G01 X28.3796 Y20.0055
G01 X28.3718 Y20.0161
G01 X28.3639 Y20.0256
G01 X28.3551 Y20.0350
G01 X28.3461 Y20.0437
G01 X28.6019 Y20.0437
G00 Z2.0000
G00 X26.8731 Y20.8549
G01 F60.00
G01 Z0.0000
G01 F120.00
G01 X26.8731 Y21.6921
G01 X26.8722 Y21.7094
G01 X26.8699 Y21.7269
G01 X26.8664 Y21.7439
G01 X26.8616 Y21.7605
G01 X26.8745 Y21.7580
G01 X26.8871 Y21.7562
G01 X26.9007 Y21.7550
G01 X26.9138 Y21.7547
G01 X26.9266 Y21.7551
G01 X26.9394 Y21.7562
G01 X26.9517 Y21.7580
G01 X26.9646 Y21.7605
G01 X26.9598 Y21.7439
G01 X26.9563 Y21.7269
G01 X26.9540 Y21.7094
G01 X26.9531 Y21.6921
G01 X26.9531 Y20.9349
G01 X26.8731 Y20.8549
G00 Z2.0000
G00 X25.2243 Y20.0437
G01 F60.00
G01 Z0.0000
G01 F120.00
G01 X26.0581 Y20.0437
G01 X26.0619 Y20.0437
G01 X26.0171 Y19.9989
G01 X25.2691 Y19.9989
G01 X25.2243 Y20.0437
G00 Z2.0000
G00 X24.2321 Y21.0359
G01 F60.00
G01 Z0.0000
G01 F120.00
G01 X24.2442 Y21.0356
G01 X24.2566 Y21.0360
G01 X24.2694 Y21.0372
G01 X24.2817 Y21.0389
G01 X24.2942 Y21.0414
G01 X24.3062 Y21.0445
G01 X24.3185 Y21.0484
G01 X24.3304 Y21.0529
G01 X24.3421 Y21.0580
G01 X24.3531 Y21.0637
G01 X24.3643 Y21.0702
G01 X24.3749 Y21.0772
G01 X24.3855 Y21.0850
G01 X24.3950 Y21.0929
G01 X24.4044 Y21.1017
G01 X24.4131 Y21.1107
G01 X24.4131 Y20.8549
G01 X24.2321 Y21.0359
G00 Z2.0000
G00 X23.0631 Y20.1667
G01 F60.00
G01 Z0.0000
G01 F120.00
G01 X23.0631 Y20.4225
G01 X23.2441 Y20.2415
G01 X23.2320 Y20.2418
G01 X23.2196 Y20.2414
G01 X23.2068 Y20.2402
G01 X23.1945 Y20.2385
G01 X23.1820 Y20.2360
G01 X23.1700 Y20.2329
G01 X23.1577 Y20.2290
G01 X23.1458 Y20.2245
G01 X23.1341 Y20.2194
G01 X23.1231 Y20.2137
G01 X23.1119 Y20.2072
G01 X23.1013 Y20.2002
G01 X23.0907 Y20.1924
G01 X23.0812 Y20.1845
G01 X23.0718 Y20.1757
G01 X23.0631 Y20.1667
G01 X23.0631 Y19.7357
G01 X23.0635 Y19.7240
G01 X23.0648 Y19.7115
G01 X23.0674 Y19.6978
G01 X23.0706 Y19.6857
G01 X23.0748 Y19.6739
G01 X23.0797 Y19.6624
G01 X23.0856 Y19.6513
G01 X23.0922 Y19.6407
G01 X23.0995 Y19.6306
G01 X23.1062 Y19.6227
G01 X23.1129 Y19.6155
G01 X24.5869 Y18.1416
G01 X24.5989 Y18.1311
G01 X24.6108 Y18.1224
G01 X24.6239 Y18.1146
G01 X24.6371 Y18.1082
G01 X24.6520 Y18.1025
G01 X24.6660 Y18.0987
G01 X24.6804 Y18.0959
G01 X24.6956 Y18.0944
G01 X26.5827 Y18.0941
G01 X26.5926 Y18.0945
G01 X26.6016 Y18.0953
G01 X26.6114 Y18.0967
G01 X26.6203 Y18.0986
G01 X26.6295 Y18.1010
G01 X26.6381 Y18.1038
G01 X26.6473 Y18.1073
G01 X26.6556 Y18.1111
G01 X26.6683 Y18.1179
G01 X26.6801 Y18.1256
G01 X26.6915 Y18.1344
G01 X26.7015 Y18.1436
G01 X28.3133 Y19.7554
G01 X28.3243 Y19.7680
G01 X28.3340 Y19.7815
G01 X28.3423 Y19.7960
G01 X28.3495 Y19.8118
G01 X28.3548 Y19.8277
G01 X28.3588 Y19.8454
G01 X28.3608 Y19.8619
G01 X28.3611 Y19.8786
G01 X28.3601 Y19.8930
G01 X28.3580 Y19.9061
G01 X28.3548 Y19.9197
G01 X28.3507 Y19.9324
G01 X28.3455 Y19.9450
G01 X28.3394 Y19.9568
G01 X28.3321 Y19.9688
G01 X28.3243 Y19.9794
G01 X28.3153 Y19.9898
G01 X28.3059 Y19.9992
G01 X28.2952 Y20.0082
G01 X28.2844 Y20.0159
G01 X28.2726 Y20.0229
G01 X28.2607 Y20.0288
G01 X28.2477 Y20.0340
G01 X28.2351 Y20.0379
G01 X28.2250 Y20.0403
G01 X28.2146 Y20.0421
G01 X28.2044 Y20.0432
G01 X28.1939 Y20.0437
G01 X27.9074 Y20.0435
G01 X27.8976 Y20.0428
G01 X27.8874 Y20.0414
G01 X27.8771 Y20.0394
G01 X27.8671 Y20.0368
G01 X27.8571 Y20.0335
G01 X27.8475 Y20.0297
G01 X27.8379 Y20.0252
G01 X27.8289 Y20.0203
G01 X27.8200 Y20.0146
G01 X27.8110 Y20.0082
G01 X27.8029 Y20.0015
G01 X27.7951 Y19.9942
G01 X26.7268 Y18.9259
G01 X26.6779 Y18.8816
G01 X26.6282 Y18.8447
G01 X26.5752 Y18.8129
G01 X26.5193 Y18.7865
G01 X26.4610 Y18.7656
G01 X26.4010 Y18.7506
G01 X26.3399 Y18.7415
G01 X26.2739 Y18.7383
G01 X25.0123 Y18.7383
G01 X24.9463 Y18.7415
G01 X24.8852 Y18.7506
G01 X24.8252 Y18.7656
G01 X24.7669 Y18.7865
G01 X24.7110 Y18.8129
G01 X24.6580 Y18.8447
G01 X24.6083 Y18.8816
G01 X24.5594 Y18.9259
G01 X23.3533 Y20.1320
G01 X23.3421 Y20.1422
G01 X23.3304 Y20.1512
G01 X23.3156 Y20.1604
G01 X23.3071 Y20.1648
G01 X23.2988 Y20.1685
G01 X23.2817 Y20.1747
G01 X23.2648 Y20.1788
G01 X23.2471 Y20.1812
G01 X23.2297 Y20.1817
G01 X23.2116 Y20.1804
G01 X23.1944 Y20.1773
G01 X23.1772 Y20.1723
G01 X23.1611 Y20.1658
G01 X23.1451 Y20.1572
G01 X23.1307 Y20.1474
G01 X23.1170 Y20.1359
G01 X23.1049 Y20.1234
G01 X23.0937 Y20.1090
G01 X23.0845 Y20.0943
G01 X23.0801 Y20.0858
G01 X23.0763 Y20.0775
G01 X23.0728 Y20.0683
G01 X23.0700 Y20.0597
G01 X23.0676 Y20.0504
G01 X23.0657 Y20.0416
G01 X23.0643 Y20.0318
G01 X23.0634 Y20.0216
G01 X23.0631 Y20.0118
G01 X23.0631 Y19.7357
G01 X23.1231 Y19.7357
G01 X23.1236 Y19.7257
G01 X23.1251 Y19.7150
G01 X23.1276 Y19.7045
G01 X23.1312 Y19.6943
G01 X23.1357 Y19.6845
G01 X23.1406 Y19.6763
G01 X23.1468 Y19.6675
G01 X23.1539 Y19.6594
G01 X24.6269 Y18.1864
G01 X24.6322 Y18.1814
G01 X24.6385 Y18.1763
G01 X24.6442 Y18.1723
G01 X24.6511 Y18.1681
G01 X24.6632 Y18.1623
G01 X24.6760 Y18.1580
G01 X24.6905 Y18.1551
G01 X24.7039 Y18.1542
G01 X26.5850 Y18.1542
G01 X26.5958 Y18.1550
G01 X26.6050 Y18.1566
G01 X26.6154 Y18.1594
G01 X26.6243 Y18.1628
G01 X26.6341 Y18.1675
G01 X26.6421 Y18.1722
G01 X26.6498 Y18.1779
G01 X26.6580 Y18.1850
G01 X28.2713 Y19.7984
G01 X28.2783 Y19.8066
G01 X28.2845 Y19.8155
G01 X28.2897 Y19.8249
G01 X28.2941 Y19.8348
G01 X28.2974 Y19.8451
G01 X28.2997 Y19.8556
G01 X28.3009 Y19.8663
G01 X28.3011 Y19.8771
G01 X28.3002 Y19.8879
G01 X28.2983 Y19.8985
G01 X28.2954 Y19.9089
G01 X28.2914 Y19.9189
G01 X28.2865 Y19.9286
G01 X28.2807 Y19.9376
G01 X28.2740 Y19.9461
G01 X28.2665 Y19.9539
G01 X28.2583 Y19.9609
G01 X28.2506 Y19.9662
G01 X28.2424 Y19.9711
G01 X28.2326 Y19.9756
G01 X28.2238 Y19.9787
G01 X28.2133 Y19.9814
G01 X28.2039 Y19.9830
G01 X28.1931 Y19.9837
G01 X27.9089 Y19.9835
G01 X27.8943 Y19.9817
G01 X27.8864 Y19.9799
G01 X27.8787 Y19.9775
G01 X27.8711 Y19.9746
G01 X27.8638 Y19.9711
G01 X27.8579 Y19.9677
G01 X27.8511 Y19.9632
G01 X27.8437 Y19.9575
G01 X27.8373 Y19.9515
G01 X26.7682 Y18.8824
G01 X26.7160 Y18.8351
G01 X26.6616 Y18.7948
G01 X26.6035 Y18.7599
G01 X26.5423 Y18.7310
G01 X26.4785 Y18.7082
G01 X26.4128 Y18.6917
G01 X26.3458 Y18.6818
G01 X26.2754 Y18.6783
G01 X25.0108 Y18.6783
G01 X24.9404 Y18.6818
G01 X24.8734 Y18.6917
G01 X24.8077 Y18.7082
G01 X24.7439 Y18.7310
G01 X24.6827 Y18.7599
G01 X24.6246 Y18.7948
G01 X24.5702 Y18.8351
G01 X24.5180 Y18.8824
G01 X23.3109 Y20.0895
G01 X23.3044 Y20.0955
G01 X23.2948 Y20.1028
G01 X23.2843 Y20.1091
G01 X23.2734 Y20.1141
G01 X23.2617 Y20.1180
G01 X23.2500 Y20.1205
G01 X23.2378 Y20.1217
G01 X23.2257 Y20.1215
G01 X23.2136 Y20.1200
G01 X23.2005 Y20.1168
G01 X23.1892 Y20.1126
G01 X23.1782 Y20.1071
G01 X23.1682 Y20.1006
G01 X23.1587 Y20.0928
G01 X23.1503 Y20.0842
G01 X23.1427 Y20.0745
G01 X23.1364 Y20.0643
G01 X23.1312 Y20.0532
G01 X23.1273 Y20.0418
G01 X23.1244 Y20.0286
G01 X23.1232 Y20.0164
G01 X23.1231 Y19.7357
G01 X23.1831 Y19.7357
G01 X23.1841 Y19.7260
G01 X23.1869 Y19.7166
G01 X23.1915 Y19.7080
G01 X23.1977 Y19.7004
G01 X24.6693 Y18.2288
G01 X24.6749 Y18.2240
G01 X24.6811 Y18.2201
G01 X24.6867 Y18.2175
G01 X24.6925 Y18.2157
G01 X24.6985 Y18.2146
G01 X24.7046 Y18.2142
G01 X26.5840 Y18.2142
G01 X26.5925 Y18.2153
G01 X26.6018 Y18.2184
G01 X26.6094 Y18.2225
G01 X26.6169 Y18.2288
G01 X28.2274 Y19.8392
G01 X28.2334 Y19.8470
G01 X28.2378 Y19.8557
G01 X28.2404 Y19.8652
G01 X28.2411 Y19.8749
G01 X28.2399 Y19.8847
G01 X28.2369 Y19.8940
G01 X28.2320 Y19.9025
G01 X28.2256 Y19.9099
G01 X28.2179 Y19.9159
G01 X28.2103 Y19.9199
G01 X28.2009 Y19.9227
G01 X28.1924 Y19.9237
G01 X27.9138 Y19.9237
G01 X27.9065 Y19.9230
G01 X27.8994 Y19.9212
G01 X27.8937 Y19.9189
G01 X27.8873 Y19.9153
G01 X27.8797 Y19.9091
G01 X26.8096 Y18.8390
G01 X26.7541 Y18.7887
G01 X26.6950 Y18.7448
G01 X26.6318 Y18.7070
G01 X26.5652 Y18.6755
G01 X26.4959 Y18.6507
G01 X26.4245 Y18.6328
G01 X26.3516 Y18.6220
G01 X26.2769 Y18.6183
G01 X25.0093 Y18.6183
G01 X24.9346 Y18.6220
G01 X24.8617 Y18.6328
G01 X24.7903 Y18.6507
G01 X24.7210 Y18.6755
G01 X24.6544 Y18.7070
G01 X24.5912 Y18.7448
G01 X24.5321 Y18.7887
G01 X24.4766 Y18.8390
G01 X23.2685 Y20.0471
G01 X23.2629 Y20.0519
G01 X23.2556 Y20.0564
G01 X23.2488 Y20.0592
G01 X23.2416 Y20.0610
G01 X23.2319 Y20.0617
G01 X23.2221 Y20.0605
G01 X23.2128 Y20.0575
G01 X23.2043 Y20.0526
G01 X23.1969 Y20.0462
G01 X23.1909 Y20.0385
G01 X23.1865 Y20.0298
G01 X23.1838 Y20.0203
G01 X23.1831 Y20.0118
G01 X23.1831 Y19.7357
G00 Z2.0000
G00 X22.2519 Y21.2337
G01 F60.00
G01 Z0.0000
G01 F120.00
G01 X22.0709 Y21.4147
G01 X22.0712 Y21.4026
G01 X22.0708 Y21.3902
G01 X22.0696 Y21.3774
G01 X22.0679 Y21.3651
G01 X22.0654 Y21.3526
G01 X22.0623 Y21.3406
G01 X22.0584 Y21.3283
G01 X22.0539 Y21.3164
G01 X22.0488 Y21.3047
G01 X22.0431 Y21.2937
G01 X22.0366 Y21.2825
G01 X22.0296 Y21.2719
G01 X22.0218 Y21.2613
G01 X22.0139 Y21.2518
G01 X22.0051 Y21.2424
G01 X21.9961 Y21.2337
G01 X22.2519 Y21.2337
G01 X21.5651 Y21.2337
G01 X21.5561 Y21.2339
G01 X21.5429 Y21.2352
G01 X21.5293 Y21.2375
G01 X21.5165 Y21.2408
G01 X21.5033 Y21.2454
G01 X21.4911 Y21.2507
G01 X21.4790 Y21.2571
G01 X21.4679 Y21.2643
G01 X21.4567 Y21.2728
G01 X21.4449 Y21.2835
G01 X19.1597 Y23.5690
G01 X19.1495 Y23.5813
G01 X19.1407 Y23.5940
G01 X19.1330 Y23.6079
G01 X19.1268 Y23.6218
G01 X19.1217 Y23.6369
G01 X19.1181 Y23.6520
G01 X19.1159 Y23.6678
G01 X19.1151 Y23.6830
G01 X19.1158 Y23.6989
G01 X19.1179 Y23.7142
G01 X19.1215 Y23.7297
G01 X19.1263 Y23.7442
G01 X19.1326 Y23.7588
G01 X19.1401 Y23.7724
G01 X19.1495 Y23.7861
G01 X19.1597 Y23.7984
G01 X19.1721 Y23.8106
G01 X19.1851 Y23.8211
G01 X19.1990 Y23.8303
G01 X19.2149 Y23.8385
G01 X19.2304 Y23.8446
G01 X19.2472 Y23.8494
G01 X19.2636 Y23.8523
G01 X19.2817 Y23.8537
G01 X19.5615 Y23.8537
G01 X19.5710 Y23.8534
G01 X19.5805 Y23.8526
G01 X19.5936 Y23.8506
G01 X19.6072 Y23.8473
G01 X19.6198 Y23.8433
G01 X19.6314 Y23.8385
G01 X19.6437 Y23.8323
G01 X19.6550 Y23.8255
G01 X19.6652 Y23.8182
G01 X19.6759 Y23.8092
G01 X21.9676 Y21.5173
G01 X21.9781 Y21.5044
G01 X21.9874 Y21.4905
G01 X21.9952 Y21.4757
G01 X22.0015 Y21.4603
G01 X22.0062 Y21.4443
G01 X22.0094 Y21.4279
G01 X22.0110 Y21.4113
G01 X22.0109 Y21.3946
G01 X22.0092 Y21.3780
G01 X22.0059 Y21.3617
G01 X22.0010 Y21.3457
G01 X21.9945 Y21.3304
G01 X21.9866 Y21.3157
G01 X21.9773 Y21.3018
G01 X21.9666 Y21.2890
G01 X21.9548 Y21.2772
G01 X21.9430 Y21.2676
G01 X21.9298 Y21.2587
G01 X21.9163 Y21.2512
G01 X21.9017 Y21.2448
G01 X21.8872 Y21.2401
G01 X21.8717 Y21.2365
G01 X21.8564 Y21.2344
G01 X21.8412 Y21.2337
G01 X21.8412 Y21.2937
G01 X21.5651 Y21.2937
G01 X21.5563 Y21.2941
G01 X21.5483 Y21.2950
G01 X21.5391 Y21.2968
G01 X21.5313 Y21.2990
G01 X21.5224 Y21.3024
G01 X21.5150 Y21.3058
G01 X21.5080 Y21.3097
G01 X21.5012 Y21.3142
G01 X21.4938 Y21.3199
G01 X21.4874 Y21.3259
G01 X19.2074 Y23.6059
G01 X19.1989 Y23.6154
G01 X19.1912 Y23.6265
G01 X19.1849 Y23.6385
G01 X19.1805 Y23.6499
G01 X19.1777 Y23.6603
G01 X19.1759 Y23.6710
G01 X19.1751 Y23.6830
G01 X19.1756 Y23.6937
G01 X19.1771 Y23.7044
G01 X19.1801 Y23.7163
G01 X19.1838 Y23.7265
G01 X19.1885 Y23.7362
G01 X19.1941 Y23.7454
G01 X19.2006 Y23.7540
G01 X19.2088 Y23.7629
G01 X19.2169 Y23.7700
G01 X19.2257 Y23.7762
G01 X19.2363 Y23.7823
G01 X19.2462 Y23.7866
G01 X19.2577 Y23.7902
G01 X19.2709 Y23.7928
G01 X19.2844 Y23.7937
G01 X19.5685 Y23.7935
G01 X19.5780 Y23.7924
G01 X19.5872 Y23.7906
G01 X19.5950 Y23.7884
G01 X19.6039 Y23.7850
G01 X19.6124 Y23.7811
G01 X19.6194 Y23.7770
G01 X19.6273 Y23.7716
G01 X19.6336 Y23.7665
G01 X21.9213 Y21.4790
G01 X21.9283 Y21.4708
G01 X21.9345 Y21.4619
G01 X21.9397 Y21.4525
G01 X21.9441 Y21.4426
G01 X21.9474 Y21.4323
G01 X21.9497 Y21.4218
G01 X21.9509 Y21.4111
G01 X21.9511 Y21.4003
G01 X21.9502 Y21.3895
G01 X21.9483 Y21.3789
G01 X21.9454 Y21.3685
G01 X21.9414 Y21.3585
G01 X21.9365 Y21.3488
G01 X21.9307 Y21.3398
G01 X21.9240 Y21.3313
G01 X21.9165 Y21.3235
G01 X21.9083 Y21.3165
G01 X21.9006 Y21.3112
G01 X21.8913 Y21.3058
G01 X21.8814 Y21.3013
G01 X21.8724 Y21.2982
G01 X21.8619 Y21.2957
G01 X21.8512 Y21.2942
G01 X21.8412 Y21.2937
G01 X21.8412 Y21.3537
G01 X21.5627 Y21.3538
G01 X21.5542 Y21.3549
G01 X21.5460 Y21.3575
G01 X21.5394 Y21.3608
G01 X21.5325 Y21.3658
G01 X19.2498 Y23.6483
G01 X19.2457 Y23.6529
G01 X19.2416 Y23.6591
G01 X19.2389 Y23.6646
G01 X19.2366 Y23.6716
G01 X19.2352 Y23.6812
G01 X19.2352 Y23.6862
G01 X19.2359 Y23.6922
G01 X19.2373 Y23.6982
G01 X19.2389 Y23.7028
G01 X19.2436 Y23.7115
G01 X19.2465 Y23.7154
G01 X19.2507 Y23.7199
G01 X19.2584 Y23.7259
G01 X19.2638 Y23.7289
G01 X19.2683 Y23.7308
G01 X19.2778 Y23.7332
G01 X19.2851 Y23.7337
G01 X19.5636 Y23.7336
G01 X19.5721 Y23.7325
G01 X19.5803 Y23.7299
G01 X19.5879 Y23.7259
G01 X19.5947 Y23.7207
G01 X21.8774 Y21.4382
G01 X21.8820 Y21.4325
G01 X21.8858 Y21.4262
G01 X21.8886 Y21.4194
G01 X21.8904 Y21.4122
G01 X21.8911 Y21.4049
G01 X21.8908 Y21.3976
G01 X21.8894 Y21.3904
G01 X21.8869 Y21.3834
G01 X21.8834 Y21.3770
G01 X21.8790 Y21.3710
G01 X21.8738 Y21.3658
G01 X21.8679 Y21.3615
G01 X21.8614 Y21.3580
G01 X21.8557 Y21.3559
G01 X21.8485 Y21.3542
G01 X21.8412 Y21.3537
G00 Z2.0000
G00 X19.0554 Y23.6727
G01 F60.00
G01 Z0.0000
G01 F120.00
G01 X18.8744 Y23.8537
G01 X19.1302 Y23.8537
G01 X19.1212 Y23.8450
G01 X19.1124 Y23.8356
G01 X19.1045 Y23.8261
G01 X19.0967 Y23.8155
G01 X19.0897 Y23.8049
G01 X19.0832 Y23.7937
G01 X19.0775 Y23.7827
G01 X19.0724 Y23.7710
G01 X19.0679 Y23.7591
G01 X19.0640 Y23.7468
G01 X19.0609 Y23.7348
G01 X19.0584 Y23.7223
G01 X19.0567 Y23.7100
G01 X19.0555 Y23.6972
G01 X19.0551 Y23.6848
G01 X19.0554 Y23.6727
G00 Z2.0000
G00 X18.2707 Y22.6750
G01 F60.00
G01 Z0.0000
G01 F120.00
G01 X18.2707 Y22.6538
G01 X18.2700 Y22.6433
G01 X18.2687 Y22.6321
G01 X18.2669 Y22.6209
G01 X18.2646 Y22.6103
G01 X18.2586 Y22.5898
G01 X18.2549 Y22.5795
G01 X18.2505 Y22.5691
G01 X18.2456 Y22.5590
G01 X18.2405 Y22.5497
G01 X18.2347 Y22.5400
G01 X18.2286 Y22.5310
G01 X18.2156 Y22.5143
G01 X18.2083 Y22.5062
G01 X18.2009 Y22.4987
G01 X18.1926 Y22.4911
G01 X18.1842 Y22.4841
G01 X18.1669 Y22.4715
G01 X18.1576 Y22.4658
G01 X18.1478 Y22.4603
G01 X18.1376 Y22.4553
G01 X18.1280 Y22.4511
G01 X18.1174 Y22.4471
G01 X18.1070 Y22.4437
G01 X18.0866 Y22.4386
G01 X18.0758 Y22.4367
G01 X18.0648 Y22.4352
G01 X18.1401 Y22.3794
G01 X18.1527 Y22.3693
G01 X18.4003 Y22.1445
G01 X18.4086 Y22.1359
G01 X18.6261 Y21.8959
G01 X18.6362 Y21.8833
G01 X18.6920 Y21.8080
G01 X18.6935 Y21.8190
G01 X18.6954 Y21.8298
G01 X18.7005 Y21.8502
G01 X18.7039 Y21.8606
G01 X18.7079 Y21.8712
G01 X18.7121 Y21.8808
G01 X18.7171 Y21.8910
G01 X18.7226 Y21.9008
G01 X18.7283 Y21.9101
G01 X18.7409 Y21.9274
G01 X18.7479 Y21.9358
G01 X18.7555 Y21.9441
G01 X18.7630 Y21.9515
G01 X18.7711 Y21.9588
G01 X18.7878 Y21.9718
G01 X18.7968 Y21.9779
G01 X18.8065 Y21.9837
G01 X18.8158 Y21.9888
G01 X18.8259 Y21.9937
G01 X18.8363 Y21.9981
G01 X18.8466 Y22.0018
G01 X18.8671 Y22.0078
G01 X18.8777 Y22.0101
G01 X18.8889 Y22.0119
G01 X18.9001 Y22.0132
G01 X18.9106 Y22.0139
G01 X18.9318 Y22.0139
G01 X18.2707 Y22.6750
G01 X18.2841 Y22.4122
G01 X18.4735 Y22.2405
G01 X18.4862 Y22.2284
G01 X18.4974 Y22.2165
G01 X18.6690 Y22.0273
G01 X18.6789 Y22.0371
G01 X18.6896 Y22.0469
G01 X18.7002 Y22.0559
G01 X18.7113 Y22.0645
G01 X18.3211 Y22.4542
G01 X18.3126 Y22.4433
G01 X18.3036 Y22.4327
G01 X18.2937 Y22.4219
G01 X18.2841 Y22.4122
G01 X18.1907 Y22.4157
G01 X18.4329 Y22.1963
G01 X18.4427 Y22.1870
G01 X18.4530 Y22.1762
G01 X18.6725 Y21.9339
G01 X18.6851 Y21.9531
G01 X18.6993 Y21.9713
G01 X18.7142 Y21.9877
G01 X18.7308 Y22.0033
G01 X18.7491 Y22.0179
G01 X18.7680 Y22.0306
G01 X18.7883 Y22.0421
G01 X18.8090 Y22.0518
G01 X18.3086 Y22.5522
G01 X18.2989 Y22.5315
G01 X18.2874 Y22.5112
G01 X18.2813 Y22.5017
G01 X18.2805 Y22.5006
G01 X18.2797 Y22.4994
G01 X18.2796 Y22.4993
G01 X18.2794 Y22.4990
G01 X18.2776 Y22.4964
G01 X18.2747 Y22.4923
G01 X18.2601 Y22.4740
G01 X18.2445 Y22.4574
G01 X18.2281 Y22.4425
G01 X18.2099 Y22.4283
G01 X18.1907 Y22.4157
G00 Z2.0000
G00 X18.0631 Y24.6650
G01 F60.00
G01 Z0.0000
G01 F120.00
G01 X17.8821 Y24.8460
G01 X17.8942 Y24.8457
G01 X17.9066 Y24.8461
G01 X17.9194 Y24.8473
G01 X17.9317 Y24.8490
G01 X17.9442 Y24.8515
G01 X17.9562 Y24.8546
G01 X17.9685 Y24.8585
G01 X17.9804 Y24.8630
G01 X17.9921 Y24.8681
G01 X18.0031 Y24.8738
G01 X18.0143 Y24.8803
G01 X18.0249 Y24.8873
G01 X18.0355 Y24.8951
G01 X18.0450 Y24.9030
G01 X18.0544 Y24.9118
G01 X18.0631 Y24.9208
G01 X18.0631 Y24.6650
G00 Z2.0000
G00 X15.9937 Y30.7940
G01 F60.00
G01 Z0.0000
G01 F120.00
G01 X15.9937 Y31.2186
G01 X16.3262 Y31.5511
G01 X16.7508 Y31.5511
G01 X15.9937 Y30.7940
G01 X16.0537 Y30.9389
G01 X16.0537 Y31.1937
G01 X16.3511 Y31.4911
G01 X16.6059 Y31.4911
G01 X16.0537 Y30.9389
G01 X16.1137 Y31.0837
G01 X16.1137 Y31.1689
G01 X16.3759 Y31.4311
G01 X16.4611 Y31.4311
G01 X16.1137 Y31.0837
G00 Z2.0000
G00 X14.3731 Y31.4311
G01 F60.00
G01 Z0.0000
G01 F120.00
G01 X14.7204 Y31.0838
G01 X14.7204 Y31.1690
G01 X14.4583 Y31.4311
G01 X14.3731 Y31.4311
G01 X14.2283 Y31.4911
G01 X14.7804 Y30.9390
G01 X14.7804 Y31.1938
G01 X14.4831 Y31.4911
G01 X14.2283 Y31.4911
G01 X14.0834 Y31.5511
G01 X14.8404 Y30.7941
G01 X14.8404 Y31.2187
G01 X14.5080 Y31.5511
G01 X14.0834 Y31.5511
G00 Z2.0000
G00 X14.0835 Y32.7044
G01 F60.00
G01 Z0.0000
G01 F120.00
G01 X14.8404 Y33.4613
G01 X14.8404 Y33.0367
G01 X14.5081 Y32.7044
G01 X14.0835 Y32.7044
G01 X14.2284 Y32.7644
G01 X14.7804 Y33.3164
G01 X14.7804 Y33.0616
G01 X14.4832 Y32.7644
G01 X14.2284 Y32.7644
G01 X14.3732 Y32.8244
G01 X14.7204 Y33.1716
G01 X14.7204 Y33.0864
G01 X14.4584 Y32.8244
G01 X14.3732 Y32.8244
G00 Z2.0000
G00 X16.5201 Y33.0044
G01 F60.00
G01 Z0.0000
G01 F120.00
G01 X16.2937 Y33.2308
G01 X16.2937 Y33.1611
G01 X16.4504 Y33.0044
G01 X16.5201 Y33.0044
G01 X16.6649 Y32.9444
G01 X16.2337 Y33.3756
G01 X16.2337 Y33.1362
G01 X16.4255 Y32.9444
G01 X16.6649 Y32.9444
G01 X16.8098 Y32.8844
G01 X16.1737 Y33.5205
G01 X16.1737 Y33.1114
G01 X16.4007 Y32.8844
G01 X16.8098 Y32.8844
G00 Z2.0000
G00 X18.6973 Y33.0623
G01 F60.00
G01 Z0.0000
G01 F120.00
G01 X18.4980 Y33.2616
G01 X18.5119 Y33.2583
G01 X18.5248 Y33.2559
G01 X18.5775 Y33.2480
G01 X18.5940 Y33.2464
G01 X18.6543 Y33.2435
G01 X18.7724 Y33.2434
G01 X18.7637 Y33.2351
G01 X18.7552 Y33.2261
G01 X18.7469 Y33.2162
G01 X18.7395 Y33.2063
G01 X18.7324 Y33.1957
G01 X18.7261 Y33.1850
G01 X18.7201 Y33.1736
G01 X18.7149 Y33.1619
G01 X18.7103 Y33.1500
G01 X18.7065 Y33.1383
G01 X18.7032 Y33.1258
G01 X18.7006 Y33.1133
G01 X18.6987 Y33.1003
G01 X18.6976 Y33.0880
G01 X18.6971 Y33.0751
G01 X18.6973 Y33.0623
G00 Z2.0000
G00 X22.2893 Y36.1512
G01 F60.00
G01 Z0.0000
G01 F120.00
G01 X22.8813 Y35.5592
G01 X22.8813 Y35.8140
G01 X22.5441 Y36.1512
G01 X22.2893 Y36.1512
G01 X22.4341 Y36.0912
G01 X22.8213 Y35.7040
G01 X22.8213 Y35.7892
G01 X22.5193 Y36.0912
G01 X22.4341 Y36.0912
G01 X22.9413 Y35.4179
G01 X22.9413 Y35.8389
G01 X22.5690 Y36.2112
G01 X22.1480 Y36.2112
G01 X22.1480 Y36.2076
G01 X22.9377 Y35.4179
G01 X22.9413 Y35.4179
G00 Z2.0000
G00 X22.1480 Y37.3246
G01 F60.00
G01 Z0.0000
G01 F120.00
G01 X22.1480 Y37.3282
G01 X22.9377 Y38.1179
G01 X22.9413 Y38.1179
G01 X22.9413 Y37.6969
G01 X22.5690 Y37.3246
G01 X22.1480 Y37.3246
G01 X22.2893 Y37.3846
G01 X22.8813 Y37.9766
G01 X22.8813 Y37.7218
G01 X22.5441 Y37.3846
G01 X22.2893 Y37.3846
G01 X22.4341 Y37.4446
G01 X22.8213 Y37.8318
G01 X22.8213 Y37.7466
G01 X22.5193 Y37.4446
G01 X22.4341 Y37.4446
G00 Z2.0000
G00 X24.0546 Y38.1179
G01 F60.00
G01 Z0.0000
G01 F120.00
G01 X24.0546 Y37.6970
G01 X24.4270 Y37.3246
G01 X25.1090 Y37.3246
G01 X25.4813 Y37.6969
G01 X25.4813 Y38.1179
G01 X25.4777 Y38.1179
G01 X24.8025 Y37.4427
G01 X24.7947 Y37.4367
G01 X24.7860 Y37.4323
G01 X24.7778 Y37.4299
G01 X24.7680 Y37.4289
G01 X24.7582 Y37.4299
G01 X24.7489 Y37.4327
G01 X24.7402 Y37.4373
G01 X24.7335 Y37.4427
G01 X24.0583 Y38.1179
G01 X24.0546 Y38.1179
G01 X24.1146 Y37.9767
G01 X24.1146 Y37.7219
G01 X24.4519 Y37.3846
G01 X24.7114 Y37.3846
G01 X24.6997 Y37.3926
G01 X24.6902 Y37.4011
G01 X24.1146 Y37.9767
G01 X24.1746 Y37.8319
G01 X24.1746 Y37.7467
G01 X24.4767 Y37.4446
G01 X24.5619 Y37.4446
G01 X24.1746 Y37.8319
G00 Z2.0000
G00 X24.8246 Y37.3846
G01 F60.00
G01 Z0.0000
G01 F120.00
G01 X24.8363 Y37.3926
G01 X24.8458 Y37.4011
G01 X25.4213 Y37.9766
G01 X25.4213 Y37.7218
G01 X25.0841 Y37.3846
G01 X24.8246 Y37.3846
G01 X24.9741 Y37.4446
G01 X25.3613 Y37.8318
G01 X25.3613 Y37.7466
G01 X25.0593 Y37.4446
G01 X24.9741 Y37.4446
G00 Z2.0000
G00 X25.1970 Y35.5779
G01 F60.00
G01 Z0.0000
G01 F120.00
G01 X24.3365 Y35.5780
G01 X24.3269 Y35.5794
G01 X24.3176 Y35.5827
G01 X24.3092 Y35.5877
G01 X24.3020 Y35.5943
G01 X24.2961 Y35.6022
G01 X24.2919 Y35.6111
G01 X24.2895 Y35.6206
G01 X24.2891 Y35.6304
G01 X24.2905 Y35.6400
G01 X24.2933 Y35.6482
G01 X24.2974 Y35.6557
G01 X24.3028 Y35.6624
G01 X24.7326 Y36.0923
G01 X24.7372 Y36.0963
G01 X24.7413 Y36.0991
G01 X24.7500 Y36.1035
G01 X24.7547 Y36.1051
G01 X24.7607 Y36.1064
G01 X24.7705 Y36.1068
G01 X24.7790 Y36.1057
G01 X24.7883 Y36.1026
G01 X24.7958 Y36.0985
G01 X24.8025 Y36.0931
G01 X25.2357 Y35.6596
G01 X25.2399 Y35.6536
G01 X25.2427 Y35.6482
G01 X25.2452 Y35.6412
G01 X25.2466 Y35.6340
G01 X25.2470 Y35.6279
G01 X25.2465 Y35.6206
G01 X25.2448 Y35.6134
G01 X25.2422 Y35.6065
G01 X25.2386 Y35.6001
G01 X25.2340 Y35.5943
G01 X25.2297 Y35.5900
G01 X25.2237 Y35.5857
G01 X25.2173 Y35.5822
G01 X25.2103 Y35.5797
G01 X25.2043 Y35.5784
G01 X25.1970 Y35.5779
G01 X25.3793 Y35.3569
G01 X25.3791 Y35.3728
G01 X25.3800 Y35.3893
G01 X25.3821 Y35.4054
G01 X25.3854 Y35.4216
G01 X25.3896 Y35.4368
G01 X25.3952 Y35.4527
G01 X25.4019 Y35.4679
G01 X25.4094 Y35.4822
G01 X25.4182 Y35.4963
G01 X25.4272 Y35.5088
G01 X25.4378 Y35.5215
G01 X25.4496 Y35.5337
G01 X25.4617 Y35.5445
G01 X25.4748 Y35.5547
G01 X25.4889 Y35.5640
G01 X25.5027 Y35.5719
G01 X25.4866 Y35.5827
G01 X25.4711 Y35.5952
G01 X25.4614 Y35.6042
G01 X25.4267 Y35.6389
G01 X25.4269 Y35.6230
G01 X25.4260 Y35.6065
G01 X25.4239 Y35.5904
G01 X25.4206 Y35.5742
G01 X25.4164 Y35.5590
G01 X25.4108 Y35.5431
G01 X25.4041 Y35.5279
G01 X25.3966 Y35.5136
G01 X25.3878 Y35.4995
G01 X25.3788 Y35.4870
G01 X25.3682 Y35.4743
G01 X25.3564 Y35.4621
G01 X25.3443 Y35.4513
G01 X25.3312 Y35.4411
G01 X25.3242 Y35.4363
G01 X25.3210 Y35.4342
G01 X25.3191 Y35.4330
G01 X25.3182 Y35.4324
G01 X25.3171 Y35.4318
G01 X25.3033 Y35.4239
G01 X25.3209 Y35.4120
G01 X25.3369 Y35.3988
G01 X25.3451 Y35.3911
G01 X25.3793 Y35.3569
G01 X26.0895 Y34.7147
G01 X26.0766 Y34.7122
G01 X26.0643 Y34.7104
G01 X26.0515 Y34.7093
G01 X26.0387 Y34.7089
G01 X26.0256 Y34.7092
G01 X26.0120 Y34.7104
G01 X25.9994 Y34.7122
G01 X25.9865 Y34.7147
G01 X25.9915 Y34.6970
G01 X25.9952 Y34.6788
G01 X25.9973 Y34.6609
G01 X25.9980 Y34.6429
G01 X25.9980 Y33.8095
G01 X25.9971 Y33.7922
G01 X25.9948 Y33.7747
G01 X25.9913 Y33.7577
G01 X25.9865 Y33.7411
G01 X25.9994 Y33.7436
G01 X26.0117 Y33.7454
G01 X26.0245 Y33.7465
G01 X26.0373 Y33.7469
G01 X26.0504 Y33.7466
G01 X26.0640 Y33.7454
G01 X26.0766 Y33.7436
G01 X26.0895 Y33.7411
G01 X26.0845 Y33.7588
G01 X26.0808 Y33.7770
G01 X26.0787 Y33.7949
G01 X26.0780 Y33.8129
G01 X26.0780 Y34.6463
G01 X26.0789 Y34.6636
G01 X26.0811 Y34.6804
G01 X26.0845 Y34.6970
G01 X26.0893 Y34.7140
G01 X26.0895 Y34.7147
G01 X26.5024 Y35.3325
G01 X26.0725 Y34.9027
G01 X26.0688 Y34.8995
G01 X26.0637 Y34.8960
G01 X26.0548 Y34.8918
G01 X26.0453 Y34.8894
G01 X26.0355 Y34.8890
G01 X26.0270 Y34.8901
G01 X26.0177 Y34.8932
G01 X26.0102 Y34.8973
G01 X26.0035 Y34.9027
G01 X25.5728 Y35.3334
G01 X25.5681 Y35.3391
G01 X25.5649 Y35.3443
G01 X25.5619 Y35.3511
G01 X25.5600 Y35.3581
G01 X25.5591 Y35.3654
G01 X25.5591 Y35.3716
G01 X25.5600 Y35.3777
G01 X25.5619 Y35.3847
G01 X25.5649 Y35.3915
G01 X25.5688 Y35.3977
G01 X25.5736 Y35.4033
G01 X25.5802 Y35.4088
G01 X25.5865 Y35.4126
G01 X25.5933 Y35.4154
G01 X25.6005 Y35.4172
G01 X25.6078 Y35.4179
G01 X26.4719 Y35.4177
G01 X26.4780 Y35.4167
G01 X26.4838 Y35.4150
G01 X26.4895 Y35.4126
G01 X26.4937 Y35.4101
G01 X26.4987 Y35.4066
G01 X26.5032 Y35.4024
G01 X26.5072 Y35.3977
G01 X26.5105 Y35.3925
G01 X26.5141 Y35.3847
G01 X26.5160 Y35.3777
G01 X26.5170 Y35.3691
G01 X26.5165 Y35.3606
G01 X26.5145 Y35.3522
G01 X26.5117 Y35.3454
G01 X26.5079 Y35.3391
G01 X26.5024 Y35.3325
G01 X26.5448 Y35.2901
G01 X26.1158 Y34.8611
G01 X26.1113 Y34.8569
G01 X26.1019 Y34.8494
G01 X26.0929 Y34.8436
G01 X26.0819 Y34.8380
G01 X26.0718 Y34.8342
G01 X26.0614 Y34.8314
G01 X26.0495 Y34.8295
G01 X26.0387 Y34.8289
G01 X26.0265 Y34.8295
G01 X26.0185 Y34.8306
G01 X26.0094 Y34.8327
G01 X26.0003 Y34.8356
G01 X25.9928 Y34.8386
G01 X25.9844 Y34.8428
G01 X25.9763 Y34.8479
G01 X25.9697 Y34.8526
G01 X25.9627 Y34.8587
G01 X25.5280 Y35.2935
G01 X25.5235 Y35.2987
G01 X25.5186 Y35.3052
G01 X25.5111 Y35.3178
G01 X25.5081 Y35.3240
G01 X25.5052 Y35.3315
G01 X25.5013 Y35.3457
G01 X25.5001 Y35.3525
G01 X25.4992 Y35.3605
G01 X25.4992 Y35.3753
G01 X25.5001 Y35.3833
G01 X25.5013 Y35.3901
G01 X25.5052 Y35.4043
G01 X25.5081 Y35.4118
G01 X25.5116 Y35.4191
G01 X25.5150 Y35.4251
G01 X25.5195 Y35.4318
G01 X25.5244 Y35.4382
G01 X25.5298 Y35.4443
G01 X25.5357 Y35.4499
G01 X25.5419 Y35.4551
G01 X25.5485 Y35.4598
G01 X25.5554 Y35.4640
G01 X25.5626 Y35.4676
G01 X25.5701 Y35.4708
G01 X25.5778 Y35.4734
G01 X25.5856 Y35.4754
G01 X25.6002 Y35.4775
G01 X25.6090 Y35.4779
G01 X26.4670 Y35.4779
G01 X26.4758 Y35.4775
G01 X26.4839 Y35.4766
G01 X26.4918 Y35.4751
G01 X26.5008 Y35.4726
G01 X26.5084 Y35.4698
G01 X26.5171 Y35.4658
G01 X26.5252 Y35.4612
G01 X26.5319 Y35.4567
G01 X26.5383 Y35.4517
G01 X26.5453 Y35.4452
G01 X26.5516 Y35.4382
G01 X26.5565 Y35.4318
G01 X26.5617 Y35.4238
G01 X26.5656 Y35.4167
G01 X26.5689 Y35.4093
G01 X26.5720 Y35.4005
G01 X26.5739 Y35.3939
G01 X26.5755 Y35.3860
G01 X26.5769 Y35.3713
G01 X26.5769 Y35.3632
G01 X26.5764 Y35.3564
G01 X26.5739 Y35.3419
G01 X26.5720 Y35.3353
G01 X26.5694 Y35.3276
G01 X26.5631 Y35.3143
G01 X26.5589 Y35.3074
G01 X26.5549 Y35.3018
G01 X26.5498 Y35.2955
G01 X26.5448 Y35.2901
G01 X26.5872 Y35.2477
G01 X26.1582 Y34.8187
G01 X26.1496 Y34.8107
G01 X26.1371 Y34.8008
G01 X26.1231 Y34.7917
G01 X26.1093 Y34.7846
G01 X26.0946 Y34.7786
G01 X26.0800 Y34.7742
G01 X26.0637 Y34.7709
G01 X26.0478 Y34.7692
G01 X26.0324 Y34.7690
G01 X26.0304 Y34.7691
G01 X26.0289 Y34.7691
G01 X26.0282 Y34.7692
G01 X26.0248 Y34.7694
G01 X26.0179 Y34.7701
G01 X26.0034 Y34.7725
G01 X25.9894 Y34.7760
G01 X25.9754 Y34.7808
G01 X25.9622 Y34.7867
G01 X25.9493 Y34.7939
G01 X25.9373 Y34.8019
G01 X25.9259 Y34.8111
G01 X25.9178 Y34.8187
G01 X25.4888 Y35.2477
G01 X25.4798 Y35.2574
G01 X25.4720 Y35.2672
G01 X25.4658 Y35.2763
G01 X25.4640 Y35.2792
G01 X25.4636 Y35.2799
G01 X25.4628 Y35.2811
G01 X25.4624 Y35.2818
G01 X25.4594 Y35.2871
G01 X25.4539 Y35.2983
G01 X25.4494 Y35.3092
G01 X25.4456 Y35.3211
G01 X25.4426 Y35.3333
G01 X25.4406 Y35.3444
G01 X25.4394 Y35.3569
G01 X25.4390 Y35.3694
G01 X25.4396 Y35.3819
G01 X25.4410 Y35.3936
G01 X25.4433 Y35.4059
G01 X25.4465 Y35.4180
G01 X25.4507 Y35.4298
G01 X25.4550 Y35.4399
G01 X25.4598 Y35.4493
G01 X25.4658 Y35.4595
G01 X25.4720 Y35.4686
G01 X25.4793 Y35.4778
G01 X25.4864 Y35.4857
G01 X25.4943 Y35.4934
G01 X25.5033 Y35.5010
G01 X25.5117 Y35.5073
G01 X25.5210 Y35.5133
G01 X25.5313 Y35.5191
G01 X25.5408 Y35.5236
G01 X25.5510 Y35.5277
G01 X25.5622 Y35.5313
G01 X25.5725 Y35.5339
G01 X25.5833 Y35.5359
G01 X25.5938 Y35.5372
G01 X25.6090 Y35.5379
G01 X26.4670 Y35.5379
G01 X26.4810 Y35.5373
G01 X26.4953 Y35.5355
G01 X26.5069 Y35.5332
G01 X26.5178 Y35.5301
G01 X26.5296 Y35.5260
G01 X26.5403 Y35.5213
G01 X26.5501 Y35.5162
G01 X26.5602 Y35.5101
G01 X26.5694 Y35.5036
G01 X26.5786 Y35.4961
G01 X26.5867 Y35.4886
G01 X26.5952 Y35.4795
G01 X26.6027 Y35.4703
G01 X26.6092 Y35.4611
G01 X26.6153 Y35.4510
G01 X26.6204 Y35.4412
G01 X26.6251 Y35.4305
G01 X26.6289 Y35.4198
G01 X26.6321 Y35.4085
G01 X26.6344 Y35.3977
G01 X26.6360 Y35.3860
G01 X26.6369 Y35.3748
G01 X26.6369 Y35.3630
G01 X26.6362 Y35.3520
G01 X26.6347 Y35.3403
G01 X26.6323 Y35.3280
G01 X26.6292 Y35.3171
G01 X26.6253 Y35.3060
G01 X26.6210 Y35.2959
G01 X26.6153 Y35.2848
G01 X26.6092 Y35.2747
G01 X26.6027 Y35.2655
G01 X26.5952 Y35.2563
G01 X26.5872 Y35.2477
G01 X26.7727 Y35.4239
G01 X26.7589 Y35.4318
G01 X26.7448 Y35.4411
G01 X26.7317 Y35.4513
G01 X26.7196 Y35.4621
G01 X26.7078 Y35.4743
G01 X26.6972 Y35.4870
G01 X26.6882 Y35.4995
G01 X26.6794 Y35.5136
G01 X26.6719 Y35.5279
G01 X26.6652 Y35.5431
G01 X26.6596 Y35.5590
G01 X26.6554 Y35.5742
G01 X26.6521 Y35.5904
G01 X26.6500 Y35.6065
G01 X26.6491 Y35.6230
G01 X26.6493 Y35.6389
G01 X26.6146 Y35.6042
G01 X26.6049 Y35.5952
G01 X26.5894 Y35.5827
G01 X26.5733 Y35.5719
G01 X26.5871 Y35.5640
G01 X26.6012 Y35.5547
G01 X26.6143 Y35.5445
G01 X26.6264 Y35.5337
G01 X26.6382 Y35.5215
G01 X26.6488 Y35.5088
G01 X26.6578 Y35.4963
G01 X26.6666 Y35.4822
G01 X26.6741 Y35.4679
G01 X26.6808 Y35.4527
G01 X26.6864 Y35.4368
G01 X26.6906 Y35.4216
G01 X26.6939 Y35.4054
G01 X26.6960 Y35.3893
G01 X26.6969 Y35.3728
G01 X26.6967 Y35.3569
G01 X26.7314 Y35.3916
G01 X26.7411 Y35.4006
G01 X26.7566 Y35.4131
G01 X26.7727 Y35.4239
G00 Z2.0000
G00 X24.1746 Y35.6712
G01 F60.00
G01 Z0.0000
G01 F120.00
G01 X24.1746 Y35.7891
G01 X24.4767 Y36.0912
G01 X24.5619 Y36.0912
G01 X24.2140 Y35.7432
G01 X24.2071 Y35.7352
G01 X24.2009 Y35.7270
G01 X24.1950 Y35.7182
G01 X24.1898 Y35.7093
G01 X24.1850 Y35.6999
G01 X24.1809 Y35.6905
G01 X24.1774 Y35.6805
G01 X24.1746 Y35.6712
G00 Z2.0000
G00 X27.2565 Y36.2811
G01 F60.00
G01 Z0.0000
G01 F120.00
G01 X27.2613 Y36.2977
G01 X27.2648 Y36.3147
G01 X27.2671 Y36.3322
G01 X27.2680 Y36.3495
G01 X27.2680 Y37.1829
G01 X27.2673 Y37.2009
G01 X27.2652 Y37.2188
G01 X27.2615 Y37.2370
G01 X27.2565 Y37.2547
G01 X27.2694 Y37.2522
G01 X27.2817 Y37.2504
G01 X27.2945 Y37.2493
G01 X27.3073 Y37.2489
G01 X27.3204 Y37.2492
G01 X27.3340 Y37.2504
G01 X27.3466 Y37.2522
G01 X27.3595 Y37.2547
G01 X27.3547 Y37.2381
G01 X27.3512 Y37.2211
G01 X27.3489 Y37.2036
G01 X27.3480 Y37.1863
G01 X27.3480 Y36.3529
G01 X27.3487 Y36.3349
G01 X27.3508 Y36.3170
G01 X27.3545 Y36.2988
G01 X27.3595 Y36.2811
G01 X27.3466 Y36.2836
G01 X27.3340 Y36.2854
G01 X27.3204 Y36.2866
G01 X27.3073 Y36.2869
G01 X27.2945 Y36.2865
G01 X27.2817 Y36.2854
G01 X27.2694 Y36.2836
G01 X27.2565 Y36.2811
G00 Z2.0000
G00 X27.7370 Y35.4579
G01 F60.00
G01 Z0.0000
G01 F120.00
G01 X26.8786 Y35.4579
G01 X26.8631 Y35.4587
G01 X26.8466 Y35.4610
G01 X26.8304 Y35.4650
G01 X26.8146 Y35.4706
G01 X26.7995 Y35.4776
G01 X26.7852 Y35.4861
G01 X26.7717 Y35.4960
G01 X26.7593 Y35.5072
G01 X26.7481 Y35.5195
G01 X26.7381 Y35.5328
G01 X26.7294 Y35.5471
G01 X26.7222 Y35.5622
G01 X26.7165 Y35.5778
G01 X26.7124 Y35.5940
G01 X26.7099 Y35.6105
G01 X26.7090 Y35.6272
G01 X26.7098 Y35.6438
G01 X26.7121 Y35.6603
G01 X26.7148 Y35.6718
G01 X26.7181 Y35.6826
G01 X26.7225 Y35.6943
G01 X26.7275 Y35.7050
G01 X26.7328 Y35.7147
G01 X26.7396 Y35.7252
G01 X26.7467 Y35.7346
G01 X26.7540 Y35.7432
G01 X27.1919 Y36.1810
G01 X27.2046 Y36.1918
G01 X27.2193 Y36.2019
G01 X27.2340 Y36.2099
G01 X27.2500 Y36.2167
G01 X27.2660 Y36.2216
G01 X27.2838 Y36.2252
G01 X27.3011 Y36.2268
G01 X27.3190 Y36.2265
G01 X27.3337 Y36.2249
G01 X27.3467 Y36.2224
G01 X27.3606 Y36.2185
G01 X27.3737 Y36.2137
G01 X27.3857 Y36.2081
G01 X27.3983 Y36.2009
G01 X27.4099 Y36.1930
G01 X27.4211 Y36.1838
G01 X27.4282 Y36.1771
G01 X27.8572 Y35.7481
G01 X27.8639 Y35.7410
G01 X27.8706 Y35.7331
G01 X27.8788 Y35.7217
G01 X27.8862 Y35.7093
G01 X27.8921 Y35.6975
G01 X27.8973 Y35.6845
G01 X27.9015 Y35.6706
G01 X27.9044 Y35.6577
G01 X27.9062 Y35.6438
G01 X27.9070 Y35.6294
G01 X27.9066 Y35.6161
G01 X27.9050 Y35.6022
G01 X27.9023 Y35.5880
G01 X27.8986 Y35.5753
G01 X27.8982 Y35.5739
G01 X27.8975 Y35.5720
G01 X27.8966 Y35.5692
G01 X27.8938 Y35.5622
G01 X27.8876 Y35.5491
G01 X27.8802 Y35.5363
G01 X27.8727 Y35.5255
G01 X27.8662 Y35.5174
G01 X27.8596 Y35.5101
G01 X27.8522 Y35.5029
G01 X27.8454 Y35.4970
G01 X27.8377 Y35.4909
G01 X27.8292 Y35.4851
G01 X27.8214 Y35.4804
G01 X27.8128 Y35.4757
G01 X27.8045 Y35.4719
G01 X27.7950 Y35.4681
G01 X27.7856 Y35.4650
G01 X27.7757 Y35.4624
G01 X27.7668 Y35.4605
G01 X27.7563 Y35.4590
G01 X27.7468 Y35.4582
G01 X27.7370 Y35.4579
G01 X27.7370 Y35.5179
G01 X26.8756 Y35.5180
G01 X26.8663 Y35.5186
G01 X26.8568 Y35.5202
G01 X26.8478 Y35.5224
G01 X26.8387 Y35.5255
G01 X26.8302 Y35.5293
G01 X26.8208 Y35.5346
G01 X26.8129 Y35.5400
G01 X26.8057 Y35.5459
G01 X26.7980 Y35.5535
G01 X26.7911 Y35.5618
G01 X26.7857 Y35.5697
G01 X26.7804 Y35.5791
G01 X26.7766 Y35.5876
G01 X26.7732 Y35.5979
G01 X26.7708 Y35.6084
G01 X26.7694 Y35.6191
G01 X26.7690 Y35.6299
G01 X26.7697 Y35.6406
G01 X26.7713 Y35.6501
G01 X26.7740 Y35.6605
G01 X26.7771 Y35.6693
G01 X26.7816 Y35.6791
G01 X26.7871 Y35.6884
G01 X26.7935 Y35.6971
G01 X26.8012 Y35.7057
G01 X27.2336 Y36.1379
G01 X27.2409 Y36.1441
G01 X27.2498 Y36.1502
G01 X27.2592 Y36.1555
G01 X27.2677 Y36.1593
G01 X27.2768 Y36.1624
G01 X27.2858 Y36.1646
G01 X27.2965 Y36.1663
G01 X27.3060 Y36.1669
G01 X27.3168 Y36.1665
G01 X27.3275 Y36.1652
G01 X27.3366 Y36.1631
G01 X27.3469 Y36.1598
G01 X27.3568 Y36.1555
G01 X27.3652 Y36.1509
G01 X27.3741 Y36.1448
G01 X27.3824 Y36.1379
G01 X27.8148 Y35.7057
G01 X27.8208 Y35.6992
G01 X27.8265 Y35.6918
G01 X27.8317 Y35.6838
G01 X27.8361 Y35.6756
G01 X27.8399 Y35.6668
G01 X27.8428 Y35.6579
G01 X27.8450 Y35.6486
G01 X27.8464 Y35.6394
G01 X27.8470 Y35.6299
G01 X27.8468 Y35.6205
G01 X27.8457 Y35.6110
G01 X27.8439 Y35.6019
G01 X27.8412 Y35.5927
G01 X27.8379 Y35.5840
G01 X27.8361 Y35.5802
G01 X27.8349 Y35.5778
G01 X27.8344 Y35.5767
G01 X27.8337 Y35.5754
G01 X27.8289 Y35.5674
G01 X27.8233 Y35.5596
G01 X27.8143 Y35.5496
G01 X27.8053 Y35.5416
G01 X27.7952 Y35.5346
G01 X27.7847 Y35.5288
G01 X27.7734 Y35.5241
G01 X27.7618 Y35.5207
G01 X27.7497 Y35.5186
G01 X27.7370 Y35.5179
G01 X27.7370 Y35.5779
G01 X26.8778 Y35.5779
G01 X26.8705 Y35.5786
G01 X26.8622 Y35.5808
G01 X26.8544 Y35.5844
G01 X26.8473 Y35.5892
G01 X26.8403 Y35.5962
G01 X26.8349 Y35.6043
G01 X26.8312 Y35.6134
G01 X26.8300 Y35.6181
G01 X26.8291 Y35.6242
G01 X26.8294 Y35.6340
G01 X26.8315 Y35.6436
G01 X26.8338 Y35.6493
G01 X26.8361 Y35.6536
G01 X26.8420 Y35.6615
G01 X27.2735 Y36.0931
G01 X27.2813 Y36.0991
G01 X27.2900 Y36.1035
G01 X27.2995 Y36.1062
G01 X27.3092 Y36.1069
G01 X27.3190 Y36.1057
G01 X27.3271 Y36.1031
G01 X27.3347 Y36.0991
G01 X27.3425 Y36.0931
G01 X27.7757 Y35.6596
G01 X27.7799 Y35.6536
G01 X27.7827 Y35.6482
G01 X27.7852 Y35.6412
G01 X27.7866 Y35.6340
G01 X27.7870 Y35.6279
G01 X27.7865 Y35.6206
G01 X27.7848 Y35.6134
G01 X27.7822 Y35.6065
G01 X27.7786 Y35.6001
G01 X27.7740 Y35.5943
G01 X27.7697 Y35.5900
G01 X27.7637 Y35.5857
G01 X27.7573 Y35.5822
G01 X27.7503 Y35.5797
G01 X27.7443 Y35.5784
G01 X27.7370 Y35.5779
G01 X28.0427 Y35.5719
G01 X28.0266 Y35.5827
G01 X28.0111 Y35.5952
G01 X28.0014 Y35.6042
G01 X27.9667 Y35.6389
G01 X27.9669 Y35.6230
G01 X27.9660 Y35.6065
G01 X27.9639 Y35.5904
G01 X27.9606 Y35.5742
G01 X27.9605 Y35.5738
G01 X27.9604 Y35.5731
G01 X27.9603 Y35.5727
G01 X27.9598 Y35.5709
G01 X27.9589 Y35.5673
G01 X27.9564 Y35.5590
G01 X27.9508 Y35.5431
G01 X27.9441 Y35.5279
G01 X27.9366 Y35.5136
G01 X27.9278 Y35.4995
G01 X27.9188 Y35.4870
G01 X27.9082 Y35.4743
G01 X27.8964 Y35.4621
G01 X27.8843 Y35.4513
G01 X27.8712 Y35.4411
G01 X27.8571 Y35.4318
G01 X27.8433 Y35.4239
G01 X27.8594 Y35.4131
G01 X27.8749 Y35.4006
G01 X27.8846 Y35.3916
G01 X27.9193 Y35.3569
G01 X27.9191 Y35.3728
G01 X27.9200 Y35.3893
G01 X27.9221 Y35.4054
G01 X27.9254 Y35.4216
G01 X27.9296 Y35.4368
G01 X27.9352 Y35.4527
G01 X27.9419 Y35.4679
G01 X27.9494 Y35.4822
G01 X27.9582 Y35.4963
G01 X27.9672 Y35.5088
G01 X27.9778 Y35.5215
G01 X27.9896 Y35.5337
G01 X28.0017 Y35.5445
G01 X28.0148 Y35.5547
G01 X28.0289 Y35.5640
G01 X28.0427 Y35.5719
G00 Z2.0000
G00 X29.1272 Y35.2477
G01 F60.00
G01 Z0.0000
G01 F120.00
G01 X29.1352 Y35.2563
G01 X29.1427 Y35.2655
G01 X29.1492 Y35.2747
G01 X29.1556 Y35.2854
G01 X29.1613 Y35.2966
G01 X29.1659 Y35.3074
G01 X29.1695 Y35.3178
G01 X29.1727 Y35.3299
G01 X29.1749 Y35.3415
G01 X29.1758 Y35.3478
G01 X29.1759 Y35.3486
G01 X29.1760 Y35.3498
G01 X29.1761 Y35.3505
G01 X29.1764 Y35.3539
G01 X29.1770 Y35.3652
G01 X29.1768 Y35.3770
G01 X29.1756 Y35.3894
G01 X29.1739 Y35.4003
G01 X29.1712 Y35.4118
G01 X29.1675 Y35.4238
G01 X29.1635 Y35.4343
G01 X29.1585 Y35.4450
G01 X29.1532 Y35.4547
G01 X29.1464 Y35.4652
G01 X29.1393 Y35.4746
G01 X29.1311 Y35.4840
G01 X29.1231 Y35.4920
G01 X29.1137 Y35.5002
G01 X29.1037 Y35.5077
G01 X29.0938 Y35.5141
G01 X29.0828 Y35.5201
G01 X29.0727 Y35.5247
G01 X29.0617 Y35.5288
G01 X29.0509 Y35.5321
G01 X29.0387 Y35.5349
G01 X29.0271 Y35.5367
G01 X29.0168 Y35.5376
G01 X29.0070 Y35.5379
G01 X28.1490 Y35.5379
G01 X28.1372 Y35.5375
G01 X28.1255 Y35.5363
G01 X28.1125 Y35.5339
G01 X28.0989 Y35.5304
G01 X28.0864 Y35.5260
G01 X28.0732 Y35.5201
G01 X28.0610 Y35.5133
G01 X28.0489 Y35.5053
G01 X28.0385 Y35.4971
G01 X28.0278 Y35.4871
G01 X28.0181 Y35.4763
G01 X28.0096 Y35.4652
G01 X28.0024 Y35.4540
G01 X27.9956 Y35.4412
G01 X27.9901 Y35.4284
G01 X27.9859 Y35.4158
G01 X27.9824 Y35.4018
G01 X27.9802 Y35.3880
G01 X27.9794 Y35.3789
G01 X27.9790 Y35.3694
G01 X27.9792 Y35.3603
G01 X27.9799 Y35.3505
G01 X27.9811 Y35.3415
G01 X27.9828 Y35.3321
G01 X27.9850 Y35.3233
G01 X27.9878 Y35.3139
G01 X27.9909 Y35.3053
G01 X27.9947 Y35.2966
G01 X27.9987 Y35.2884
G01 X28.0036 Y35.2799
G01 X28.0085 Y35.2722
G01 X28.0141 Y35.2645
G01 X28.0198 Y35.2574
G01 X28.0264 Y35.2501
G01 X28.4578 Y34.8187
G01 X28.4659 Y34.8111
G01 X28.4773 Y34.8019
G01 X28.4893 Y34.7939
G01 X28.5022 Y34.7867
G01 X28.5154 Y34.7808
G01 X28.5294 Y34.7760
G01 X28.5434 Y34.7725
G01 X28.5579 Y34.7701
G01 X28.5731 Y34.7690
G01 X28.5890 Y34.7693
G01 X28.6044 Y34.7710
G01 X28.6207 Y34.7744
G01 X28.6360 Y34.7791
G01 X28.6500 Y34.7849
G01 X28.6641 Y34.7923
G01 X28.6771 Y34.8008
G01 X28.6896 Y34.8107
G01 X28.6982 Y34.8187
G01 X29.1272 Y35.2477
G01 X29.0848 Y35.2901
G01 X29.0916 Y35.2976
G01 X29.0974 Y35.3052
G01 X29.1023 Y35.3130
G01 X29.1067 Y35.3215
G01 X29.1103 Y35.3302
G01 X29.1135 Y35.3405
G01 X29.1139 Y35.3419
G01 X29.1145 Y35.3445
G01 X29.1155 Y35.3498
G01 X29.1166 Y35.3591
G01 X29.1170 Y35.3686
G01 X29.1165 Y35.3779
G01 X29.1150 Y35.3886
G01 X29.1128 Y35.3979
G01 X29.1099 Y35.4068
G01 X29.1061 Y35.4156
G01 X29.1017 Y35.4238
G01 X29.0958 Y35.4328
G01 X29.0872 Y35.4432
G01 X29.0783 Y35.4517
G01 X29.0687 Y35.4589
G01 X29.0571 Y35.4658
G01 X29.0459 Y35.4708
G01 X29.0344 Y35.4744
G01 X29.0212 Y35.4770
G01 X29.0090 Y35.4779
G01 X28.1456 Y35.4778
G01 X28.1363 Y35.4772
G01 X28.1268 Y35.4756
G01 X28.1178 Y35.4734
G01 X28.1087 Y35.4703
G01 X28.1002 Y35.4665
G01 X28.0908 Y35.4612
G01 X28.0829 Y35.4558
G01 X28.0757 Y35.4499
G01 X28.0680 Y35.4423
G01 X28.0611 Y35.4340
G01 X28.0557 Y35.4261
G01 X28.0504 Y35.4167
G01 X28.0466 Y35.4082
G01 X28.0432 Y35.3979
G01 X28.0408 Y35.3874
G01 X28.0394 Y35.3767
G01 X28.0390 Y35.3672
G01 X28.0396 Y35.3564
G01 X28.0413 Y35.3457
G01 X28.0435 Y35.3367
G01 X28.0471 Y35.3265
G01 X28.0516 Y35.3167
G01 X28.0565 Y35.3084
G01 X28.0627 Y35.2996
G01 X28.0712 Y35.2901
G01 X28.5036 Y34.8579
G01 X28.5109 Y34.8517
G01 X28.5185 Y34.8464
G01 X28.5268 Y34.8415
G01 X28.5341 Y34.8380
G01 X28.5416 Y34.8351
G01 X28.5506 Y34.8324
G01 X28.5599 Y34.8304
G01 X28.5692 Y34.8293
G01 X28.5800 Y34.8289
G01 X28.5907 Y34.8296
G01 X28.6014 Y34.8314
G01 X28.6132 Y34.8347
G01 X28.6232 Y34.8386
G01 X28.6329 Y34.8436
G01 X28.6419 Y34.8494
G01 X28.6513 Y34.8569
G01 X29.0848 Y35.2901
G01 X29.0424 Y35.3325
G01 X29.0479 Y35.3391
G01 X29.0527 Y35.3476
G01 X29.0555 Y35.3558
G01 X29.0569 Y35.3654
G01 X29.0565 Y35.3752
G01 X29.0545 Y35.3836
G01 X29.0511 Y35.3915
G01 X29.0464 Y35.3987
G01 X29.0424 Y35.4033
G01 X29.0378 Y35.4073
