(G-CODE GENERATED BY FLATCAM v8.994 - www.flatcam.org - Version Date: 2020/11/7)

(Name: WaterTankMonitr_PCB_Plan_outline.gbr_cutout_cnc)
(Type: G-code from Geometry)
(Units: MM)

(Created on Sunday, 13 April 2025 at 21:05)

(This preprocessor is the default preprocessor used by FlatCAM.)
(It is made to work with MACH3 compatible motion controllers.)

(TOOL DIAMETER: 2.0 mm)
(Feedrate_XY: 120.0 mm/min)
(Feedrate_Z: 60.0 mm/min)
(Feedrate rapids 1500.0 mm/min)

(Z_Cut: -1.8 mm)
(DepthPerCut: 0.6 mm <=>3 passes)
(Z_Move: 2.0 mm)
(Z Start: None mm)
(Z End: 15.0 mm)
(X,Y End: None mm)
(Steps per circle: 64)
(Preprocessor Geometry: default)

(X range:    1.2829 ...   67.6902  mm)
(Y range:    1.9936 ...   50.7139  mm)

(Spindle Speed: 1000.0 RPM)
G21
G90
G94

G01 F120.00

M5
G00 Z15.0000
G00 X0.0000 Y0.0000
T1
  
(MSG, Change to Tool Dia = 2.0000)
M0
G00 Z15.0000

M03 S1000.0
G01 F120.00
G00 X18.6631 Y1.9936
G01 F60.00
G01 Z-0.6000
G01 F120.00
G01 X2.3829 Y1.9936
G01 X2.2751 Y1.9989
G01 X2.1683 Y2.0147
G01 X2.0636 Y2.0410
G01 X1.9619 Y2.0773
G01 X1.8644 Y2.1235
G01 X1.7718 Y2.1790
G01 X1.6851 Y2.2433
G01 X1.6051 Y2.3158
G01 X1.5326 Y2.3958
G01 X1.4683 Y2.4825
G01 X1.4128 Y2.5751
G01 X1.3666 Y2.6726
G01 X1.3303 Y2.7743
G01 X1.3040 Y2.8790
G01 X1.2882 Y2.9858
G01 X1.2829 Y3.0936
G01 X1.2829 Y49.6139
G01 X1.2882 Y49.7217
G01 X1.3040 Y49.8285
G01 X1.3303 Y49.9332
G01 X1.3666 Y50.0349
G01 X1.4128 Y50.1324
G01 X1.4683 Y50.2250
G01 X1.5326 Y50.3117
G01 X1.6051 Y50.3917
G01 X1.6851 Y50.4642
G01 X1.7718 Y50.5285
G01 X1.8644 Y50.5840
G01 X1.9619 Y50.6302
G01 X2.0636 Y50.6665
G01 X2.1683 Y50.6928
G01 X2.2751 Y50.7086
G01 X2.3829 Y50.7139
G01 X18.6631 Y50.7139
G00 X18.6631 Y50.7139
G01 F60.00
G01 Z-1.2000
G01 F120.00
G01 X2.3829 Y50.7139
G01 X2.2751 Y50.7086
G01 X2.1683 Y50.6928
G01 X2.0636 Y50.6665
G01 X1.9619 Y50.6302
G01 X1.8644 Y50.5840
G01 X1.7718 Y50.5285
G01 X1.6851 Y50.4642
G01 X1.6051 Y50.3917
G01 X1.5326 Y50.3117
G01 X1.4683 Y50.2250
G01 X1.4128 Y50.1324
G01 X1.3666 Y50.0349
G01 X1.3303 Y49.9332
G01 X1.3040 Y49.8285
G01 X1.2882 Y49.7217
G01 X1.2829 Y49.6139
G01 X1.2829 Y3.0936
G01 X1.2882 Y2.9858
G01 X1.3040 Y2.8790
G01 X1.3303 Y2.7743
G01 X1.3666 Y2.6726
G01 X1.4128 Y2.5751
G01 X1.4683 Y2.4825
G01 X1.5326 Y2.3958
G01 X1.6051 Y2.3158
G01 X1.6851 Y2.2433
G01 X1.7718 Y2.1790
G01 X1.8644 Y2.1235
G01 X1.9619 Y2.0773
G01 X2.0636 Y2.0410
G01 X2.1683 Y2.0147
G01 X2.2751 Y1.9989
G01 X2.3829 Y1.9936
G01 X18.6631 Y1.9936
G00 X18.6631 Y1.9936
G01 F60.00
G01 Z-1.8000
G01 F120.00
G01 X2.3829 Y1.9936
G01 X2.2751 Y1.9989
G01 X2.1683 Y2.0147
G01 X2.0636 Y2.0410
G01 X1.9619 Y2.0773
G01 X1.8644 Y2.1235
G01 X1.7718 Y2.1790
G01 X1.6851 Y2.2433
G01 X1.6051 Y2.3158
G01 X1.5326 Y2.3958
G01 X1.4683 Y2.4825
G01 X1.4128 Y2.5751
G01 X1.3666 Y2.6726
G01 X1.3303 Y2.7743
G01 X1.3040 Y2.8790
G01 X1.2882 Y2.9858
G01 X1.2829 Y3.0936
G01 X1.2829 Y49.6139
G01 X1.2882 Y49.7217
G01 X1.3040 Y49.8285
G01 X1.3303 Y49.9332
G01 X1.3666 Y50.0349
G01 X1.4128 Y50.1324
G01 X1.4683 Y50.2250
G01 X1.5326 Y50.3117
G01 X1.6051 Y50.3917
G01 X1.6851 Y50.4642
G01 X1.7718 Y50.5285
G01 X1.8644 Y50.5840
G01 X1.9619 Y50.6302
G01 X2.0636 Y50.6665
G01 X2.1683 Y50.6928
G01 X2.2751 Y50.7086
G01 X2.3829 Y50.7139
G01 X18.6631 Y50.7139
G00 Z2.0000
G00 X22.6631 Y50.7139
G01 F60.00
G01 Z-0.6000
G01 F120.00
G01 X38.7433 Y50.7139
G01 X38.8511 Y50.7086
G01 X38.9579 Y50.6928
G01 X39.0626 Y50.6665
G01 X39.1643 Y50.6302
G01 X39.2618 Y50.5840
G01 X39.3544 Y50.5285
G01 X39.4411 Y50.4642
G01 X39.5211 Y50.3917
G01 X39.5936 Y50.3117
G01 X39.6579 Y50.2250
G01 X39.7134 Y50.1324
G01 X39.7596 Y50.0349
G01 X39.7959 Y49.9332
G01 X39.8222 Y49.8285
G01 X39.8380 Y49.7217
G01 X39.8433 Y49.6139
G01 X39.8433 Y3.0936
G01 X39.8380 Y2.9858
G01 X39.8222 Y2.8790
G01 X39.7959 Y2.7743
G01 X39.7596 Y2.6726
G01 X39.7134 Y2.5751
G01 X39.6579 Y2.4825
G01 X39.5936 Y2.3958
G01 X39.5211 Y2.3158
G01 X39.4411 Y2.2433
G01 X39.3544 Y2.1790
G01 X39.2618 Y2.1235
G01 X39.1643 Y2.0773
G01 X39.0626 Y2.0410
G01 X38.9579 Y2.0147
G01 X38.8511 Y1.9989
G01 X38.7433 Y1.9936
G01 X22.6631 Y1.9936
G00 X22.6631 Y1.9936
G01 F60.00
G01 Z-1.2000
G01 F120.00
G01 X38.7433 Y1.9936
G01 X38.8511 Y1.9989
G01 X38.9579 Y2.0147
G01 X39.0626 Y2.0410
G01 X39.1643 Y2.0773
G01 X39.2618 Y2.1235
G01 X39.3544 Y2.1790
G01 X39.4411 Y2.2433
G01 X39.5211 Y2.3158
G01 X39.5936 Y2.3958
G01 X39.6579 Y2.4825
G01 X39.7134 Y2.5751
G01 X39.7596 Y2.6726
G01 X39.7959 Y2.7743
G01 X39.8222 Y2.8790
G01 X39.8380 Y2.9858
G01 X39.8433 Y3.0936
G01 X39.8433 Y49.6139
G01 X39.8380 Y49.7217
G01 X39.8222 Y49.8285
G01 X39.7959 Y49.9332
G01 X39.7596 Y50.0349
G01 X39.7134 Y50.1324
G01 X39.6579 Y50.2250
G01 X39.5936 Y50.3117
G01 X39.5211 Y50.3917
G01 X39.4411 Y50.4642
G01 X39.3544 Y50.5285
G01 X39.2618 Y50.5840
G01 X39.1643 Y50.6302
G01 X39.0626 Y50.6665
G01 X38.9579 Y50.6928
G01 X38.8511 Y50.7086
G01 X38.7433 Y50.7139
G01 X22.6631 Y50.7139
G00 X22.6631 Y50.7139
G01 F60.00
G01 Z-1.8000
G01 F120.00
G01 X38.7433 Y50.7139
G01 X38.8511 Y50.7086
G01 X38.9579 Y50.6928
G01 X39.0626 Y50.6665
G01 X39.1643 Y50.6302
G01 X39.2618 Y50.5840
G01 X39.3544 Y50.5285
G01 X39.4411 Y50.4642
G01 X39.5211 Y50.3917
G01 X39.5936 Y50.3117
G01 X39.6579 Y50.2250
G01 X39.7134 Y50.1324
G01 X39.7596 Y50.0349
G01 X39.7959 Y49.9332
G01 X39.8222 Y49.8285
G01 X39.8380 Y49.7217
G01 X39.8433 Y49.6139
G01 X39.8433 Y3.0936
G01 X39.8380 Y2.9858
G01 X39.8222 Y2.8790
G01 X39.7959 Y2.7743
G01 X39.7596 Y2.6726
G01 X39.7134 Y2.5751
G01 X39.6579 Y2.4825
G01 X39.5936 Y2.3958
G01 X39.5211 Y2.3158
G01 X39.4411 Y2.2433
G01 X39.3544 Y2.1790
G01 X39.2618 Y2.1235
G01 X39.1643 Y2.0773
G01 X39.0626 Y2.0410
G01 X38.9579 Y2.0147
G01 X38.8511 Y1.9989
G01 X38.7433 Y1.9936
G01 X22.6631 Y1.9936
G00 Z2.0000
G00 X52.2250 Y6.3798
G01 F60.00
G01 Z-0.6000
G01 F120.00
G01 X41.6598 Y6.3798
G01 X41.5520 Y6.3851
G01 X41.4452 Y6.4009
G01 X41.3405 Y6.4272
G01 X41.2388 Y6.4635
G01 X41.1413 Y6.5097
G01 X41.0487 Y6.5652
G01 X40.9620 Y6.6295
G01 X40.8820 Y6.7020
G01 X40.8095 Y6.7820
G01 X40.7452 Y6.8687
G01 X40.6897 Y6.9613
G01 X40.6435 Y7.0588
G01 X40.6072 Y7.1605
G01 X40.5809 Y7.2652
G01 X40.5651 Y7.3720
G01 X40.5598 Y7.4798
G01 X40.5598 Y48.9202
G01 X40.5651 Y49.0280
G01 X40.5809 Y49.1348
G01 X40.6072 Y49.2395
G01 X40.6435 Y49.3412
G01 X40.6897 Y49.4387
G01 X40.7452 Y49.5313
G01 X40.8095 Y49.6180
G01 X40.8820 Y49.6980
G01 X40.9620 Y49.7705
G01 X41.0487 Y49.8348
G01 X41.1413 Y49.8903
G01 X41.2388 Y49.9365
G01 X41.3405 Y49.9728
G01 X41.4452 Y49.9991
G01 X41.5520 Y50.0149
G01 X41.6598 Y50.0202
G01 X52.2250 Y50.0202
G00 X52.2250 Y50.0202
G01 F60.00
G01 Z-1.2000
G01 F120.00
G01 X41.6598 Y50.0202
G01 X41.5520 Y50.0149
G01 X41.4452 Y49.9991
G01 X41.3405 Y49.9728
G01 X41.2388 Y49.9365
G01 X41.1413 Y49.8903
G01 X41.0487 Y49.8348
G01 X40.9620 Y49.7705
G01 X40.8820 Y49.6980
G01 X40.8095 Y49.6180
G01 X40.7452 Y49.5313
G01 X40.6897 Y49.4387
G01 X40.6435 Y49.3412
G01 X40.6072 Y49.2395
G01 X40.5809 Y49.1348
G01 X40.5651 Y49.0280
G01 X40.5598 Y48.9202
G01 X40.5598 Y7.4798
G01 X40.5651 Y7.3720
G01 X40.5809 Y7.2652
G01 X40.6072 Y7.1605
G01 X40.6435 Y7.0588
G01 X40.6897 Y6.9613
G01 X40.7452 Y6.8687
G01 X40.8095 Y6.7820
G01 X40.8820 Y6.7020
G01 X40.9620 Y6.6295
G01 X41.0487 Y6.5652
G01 X41.1413 Y6.5097
G01 X41.2388 Y6.4635
G01 X41.3405 Y6.4272
G01 X41.4452 Y6.4009
G01 X41.5520 Y6.3851
G01 X41.6598 Y6.3798
G01 X52.2250 Y6.3798
G00 X52.2250 Y6.3798
G01 F60.00
G01 Z-1.8000
G01 F120.00
G01 X41.6598 Y6.3798
G01 X41.5520 Y6.3851
G01 X41.4452 Y6.4009
G01 X41.3405 Y6.4272
G01 X41.2388 Y6.4635
G01 X41.1413 Y6.5097
G01 X41.0487 Y6.5652
G01 X40.9620 Y6.6295
G01 X40.8820 Y6.7020
G01 X40.8095 Y6.7820
G01 X40.7452 Y6.8687
G01 X40.6897 Y6.9613
G01 X40.6435 Y7.0588
G01 X40.6072 Y7.1605
G01 X40.5809 Y7.2652
G01 X40.5651 Y7.3720
G01 X40.5598 Y7.4798
G01 X40.5598 Y48.9202
G01 X40.5651 Y49.0280
G01 X40.5809 Y49.1348
G01 X40.6072 Y49.2395
G01 X40.6435 Y49.3412
G01 X40.6897 Y49.4387
G01 X40.7452 Y49.5313
G01 X40.8095 Y49.6180
G01 X40.8820 Y49.6980
G01 X40.9620 Y49.7705
G01 X41.0487 Y49.8348
G01 X41.1413 Y49.8903
G01 X41.2388 Y49.9365
G01 X41.3405 Y49.9728
G01 X41.4452 Y49.9991
G01 X41.5520 Y50.0149
G01 X41.6598 Y50.0202
G01 X52.2250 Y50.0202
G00 Z2.0000
G00 X56.2250 Y50.0202
G01 F60.00
G01 Z-0.6000
G01 F120.00
G01 X66.5902 Y50.0202
G01 X66.6980 Y50.0149
G01 X66.8048 Y49.9991
G01 X66.9095 Y49.9728
G01 X67.0112 Y49.9365
G01 X67.1087 Y49.8903
G01 X67.2013 Y49.8348
G01 X67.2880 Y49.7705
G01 X67.3680 Y49.6980
G01 X67.4405 Y49.6180
G01 X67.5048 Y49.5313
G01 X67.5603 Y49.4387
G01 X67.6065 Y49.3412
G01 X67.6428 Y49.2395
G01 X67.6691 Y49.1348
G01 X67.6849 Y49.0280
G01 X67.6902 Y48.9202
G01 X67.6902 Y7.4798
G01 X67.6849 Y7.3720
G01 X67.6691 Y7.2652
G01 X67.6428 Y7.1605
G01 X67.6065 Y7.0588
G01 X67.5603 Y6.9613
G01 X67.5048 Y6.8687
G01 X67.4405 Y6.7820
G01 X67.3680 Y6.7020
G01 X67.2880 Y6.6295
G01 X67.2013 Y6.5652
G01 X67.1087 Y6.5097
G01 X67.0112 Y6.4635
G01 X66.9095 Y6.4272
G01 X66.8048 Y6.4009
G01 X66.6980 Y6.3851
G01 X66.5902 Y6.3798
G01 X56.2250 Y6.3798
G00 X56.2250 Y6.3798
G01 F60.00
G01 Z-1.2000
G01 F120.00
G01 X66.5902 Y6.3798
G01 X66.6980 Y6.3851
G01 X66.8048 Y6.4009
G01 X66.9095 Y6.4272
G01 X67.0112 Y6.4635
G01 X67.1087 Y6.5097
G01 X67.2013 Y6.5652
G01 X67.2880 Y6.6295
G01 X67.3680 Y6.7020
G01 X67.4405 Y6.7820
G01 X67.5048 Y6.8687
G01 X67.5603 Y6.9613
G01 X67.6065 Y7.0588
G01 X67.6428 Y7.1605
G01 X67.6691 Y7.2652
G01 X67.6849 Y7.3720
G01 X67.6902 Y7.4798
G01 X67.6902 Y48.9202
G01 X67.6849 Y49.0280
G01 X67.6691 Y49.1348
G01 X67.6428 Y49.2395
G01 X67.6065 Y49.3412
G01 X67.5603 Y49.4387
G01 X67.5048 Y49.5313
G01 X67.4405 Y49.6180
G01 X67.3680 Y49.6980
G01 X67.2880 Y49.7705
G01 X67.2013 Y49.8348
G01 X67.1087 Y49.8903
G01 X67.0112 Y49.9365
G01 X66.9095 Y49.9728
G01 X66.8048 Y49.9991
G01 X66.6980 Y50.0149
G01 X66.5902 Y50.0202
G01 X56.2250 Y50.0202
G00 X56.2250 Y50.0202
G01 F60.00
G01 Z-1.8000
G01 F120.00
G01 X66.5902 Y50.0202
G01 X66.6980 Y50.0149
G01 X66.8048 Y49.9991
G01 X66.9095 Y49.9728
G01 X67.0112 Y49.9365
G01 X67.1087 Y49.8903
G01 X67.2013 Y49.8348
G01 X67.2880 Y49.7705
G01 X67.3680 Y49.6980
G01 X67.4405 Y49.6180
G01 X67.5048 Y49.5313
G01 X67.5603 Y49.4387
G01 X67.6065 Y49.3412
G01 X67.6428 Y49.2395
G01 X67.6691 Y49.1348
G01 X67.6849 Y49.0280
G01 X67.6902 Y48.9202
G01 X67.6902 Y7.4798
G01 X67.6849 Y7.3720
G01 X67.6691 Y7.2652
G01 X67.6428 Y7.1605
G01 X67.6065 Y7.0588
G01 X67.5603 Y6.9613
G01 X67.5048 Y6.8687
G01 X67.4405 Y6.7820
G01 X67.3680 Y6.7020
G01 X67.2880 Y6.6295
G01 X67.2013 Y6.5652
G01 X67.1087 Y6.5097
G01 X67.0112 Y6.4635
G01 X66.9095 Y6.4272
G01 X66.8048 Y6.4009
G01 X66.6980 Y6.3851
G01 X66.5902 Y6.3798
G01 X56.2250 Y6.3798
G00 Z2.0000
M05
G00 Z2.0000
G00 Z15.00


